;FLAVOR:Marlin
;TIME:11147
;Filament used: 11.2936m
;Layer height: 0.2
;MINX:13.557
;MINY:2.2
;MINZ:0.2
;MAXX:206.443
;MAXY:217.743
;MAXZ:3.6
;TARGET_MACHINE.NAME:Creality Ender-3 V3 SE
;Generated with Cura_SteamEngine 5.8.1
M82 ;absolute extrusion mode
M220 S100 ;Reset Feedrate
M221 S100 ;Reset Flowrate

G28 ;Home

M420 S1; Use saved mesh leveling data

G92 E0 ;Reset Extruder
G1 Z2.0 F3000 ;Move Z Axis up
G1 X-3 Y20 Z0.28 F5000.0 ;Move to start position
M190 S65 ; Set bed temperature and wait
M109 S205.0 ; Set hotend temperature and wait
G1 X-3 Y100.0 Z0.28 F1500.0 E15 ;Draw the first line
G1 X-2 Y100.0 Z0.28 F5000.0 ;Move to side a little
G1 X-2 Y20 Z0.28 F1500.0 E30 ;Draw the second line
G92 E0 ;Reset Extruder
G1 E-1.0000 F1800 ;Retract a bit
G1 Z2.0 F3000 ;Move Z Axis up
G1 E0.0000 F1800 

G92 E0
G92 E0
G1 F2400 E-0.8
;LAYER_COUNT:17
;LAYER:0
M107
G1 F300 Z0.4
G0 F9000 X15.826 Y11.083 Z0.4
;TYPE:SKIRT
G1 F300 Z0.2
G1 F2400 E0
G1 F1800 X18.669 Y7.373 E0.15546
G1 X22.379 Y4.53 E0.31092
G1 X26.724 Y2.725 E0.46741
G1 X30.314 Y2.257 E0.58782
G1 X188.698 Y2.2 E5.8557
G1 X193.321 Y2.738 E6.0105
G1 X197.598 Y4.508 E6.16445
G1 X201.311 Y7.353 E6.32003
G1 X204.18 Y11.095 E6.47686
G1 X205.971 Y15.405 E6.63209
G1 X206.443 Y19.011 E6.75305
G1 X206.441 Y201.012 E12.80643
G1 X205.973 Y204.588 E12.92638
G1 X204.174 Y208.917 E13.0823
G1 X201.331 Y212.627 E13.23776
G1 X197.621 Y215.47 E13.39322
G1 X193.276 Y217.275 E13.54971
G1 X189.686 Y217.743 E13.67013
G1 X30.288 Y217.741 E18.97173
G1 X26.716 Y217.273 E19.09155
G1 X22.384 Y215.473 E19.24757
G1 X18.661 Y212.619 E19.4036
G1 X15.827 Y208.922 E19.55853
G1 X14.027 Y204.589 E19.71459
G1 X13.557 Y200.989 E19.83534
G1 X13.559 Y18.988 E25.88872
G1 X14.027 Y15.412 E26.00867
G1 X15.826 Y11.083 E26.16459
G0 F9000 X16.176 Y11.283
G1 F1800 X18.954 Y7.658 E26.31649
G1 X22.579 Y4.88 E26.46839
G1 X26.826 Y3.115 E26.62136
G1 X30.366 Y2.654 E26.7401
G1 X188.698 Y2.6 E32.00624
G1 X193.217 Y3.128 E32.15757
G1 X197.397 Y4.858 E32.30803
G1 X201.028 Y7.64 E32.46017
G1 X203.83 Y11.295 E32.61335
G1 X205.581 Y15.508 E32.76509
G1 X206.046 Y19.063 E32.88434
G1 X206.044 Y200.96 E38.93426
G1 X205.583 Y204.485 E39.0525
G1 X203.824 Y208.717 E39.20493
G1 X201.046 Y212.342 E39.35683
G1 X197.421 Y215.12 E39.50873
G1 X193.174 Y216.885 E39.6617
G1 X189.634 Y217.346 E39.78044
G1 X30.34 Y217.344 E45.07858
G1 X26.819 Y216.883 E45.19668
G1 X22.587 Y215.124 E45.34912
G1 X18.946 Y212.334 E45.50168
G1 X16.176 Y208.719 E45.65316
G1 X14.417 Y204.487 E45.80559
G1 X13.954 Y200.937 E45.92466
G1 X13.956 Y19.04 E51.97458
G1 X14.417 Y15.515 E52.09282
G1 X16.176 Y11.283 E52.24525
G0 F9000 X16.525 Y11.484
G1 F1800 X19.237 Y7.945 E52.39355
G1 X22.783 Y5.228 E52.54213
G1 X26.927 Y3.506 E52.69138
G1 X30.418 Y3.051 E52.80848
G1 X188.698 Y3 E58.07289
G1 X193.113 Y3.518 E58.22074
G1 X197.196 Y5.208 E58.36772
G1 X200.745 Y7.927 E58.51642
G1 X203.481 Y11.496 E58.66599
G1 X205.19 Y15.609 E58.81413
G1 X205.649 Y19.115 E58.93173
G1 X205.647 Y200.908 E64.97819
G1 X205.192 Y204.384 E65.09479
G1 X203.475 Y208.516 E65.24361
G1 X200.763 Y212.055 E65.39191
G1 X197.217 Y214.772 E65.54049
G1 X193.073 Y216.494 E65.68975
G1 X189.582 Y216.949 E65.80684
G1 X30.392 Y216.947 E71.10152
G1 X26.92 Y216.492 E71.21799
G1 X22.788 Y214.775 E71.36681
G1 X19.231 Y212.049 E71.51586
G1 X16.525 Y208.518 E71.66383
G1 X14.808 Y204.386 E71.81265
G1 X14.351 Y200.885 E71.93008
G1 X14.353 Y19.092 E77.97654
G1 X14.808 Y15.616 E78.09314
G1 X16.525 Y11.484 E78.24196
G0 F9000 X16.875 Y11.684
G1 F1800 X19.522 Y8.23 E78.3867
G1 X22.984 Y5.577 E78.53177
G1 X27.028 Y3.897 E78.67742
G1 X30.47 Y3.448 E78.79287
G1 X188.698 Y3.4 E84.05555
G1 X193.009 Y3.908 E84.19993
G1 X196.998 Y5.559 E84.34352
G1 X200.46 Y8.212 E84.48859
G1 X203.131 Y11.696 E84.6346
G1 X204.8 Y15.712 E84.77925
G1 X205.252 Y19.167 E84.89514
G1 X205.25 Y200.856 E90.93814
G1 X204.802 Y204.281 E91.05303
G1 X203.125 Y208.316 E91.19836
G1 X200.478 Y211.77 E91.3431
G1 X197.016 Y214.423 E91.48817
G1 X192.972 Y216.103 E91.63382
G1 X189.53 Y216.552 E91.74927
G1 X30.444 Y216.55 E97.04049
G1 X27.023 Y216.102 E97.15525
G1 X22.988 Y214.425 E97.30058
G1 X19.516 Y211.764 E97.44607
G1 X16.874 Y208.317 E97.59052
G1 X15.199 Y204.285 E97.73574
G1 X14.748 Y200.833 E97.85153
G1 X14.75 Y19.144 E103.89453
G1 X15.198 Y15.719 E104.00942
G1 X16.875 Y11.684 E104.15475
G0 F9000 X17.224 Y11.885
G1 F1800 X19.807 Y8.515 E104.29597
G1 X23.184 Y5.927 E104.43748
G1 X27.13 Y4.287 E104.57961
G1 X30.522 Y3.845 E104.69338
G1 X188.698 Y3.8 E109.95434
G1 X192.905 Y4.298 E110.09524
G1 X196.797 Y5.909 E110.23534
G1 X200.177 Y8.499 E110.37697
G1 X202.781 Y11.896 E110.51933
G1 X204.41 Y15.815 E110.66049
G1 X204.855 Y19.219 E110.77467
G1 X204.853 Y200.804 E116.81421
G1 X204.411 Y204.18 E116.92746
G1 X202.776 Y208.115 E117.06918
G1 X200.193 Y211.485 E117.21041
G1 X196.816 Y214.073 E117.35192
G1 X192.87 Y215.713 E117.49405
G1 X189.478 Y216.155 E117.60782
G1 X30.496 Y216.153 E122.89558
G1 X27.124 Y215.711 E123.00869
G1 X23.189 Y214.076 E123.15042
G1 X19.803 Y211.481 E123.29231
G1 X17.223 Y208.114 E123.43339
G1 X15.589 Y204.183 E123.57498
G1 X15.145 Y200.781 E123.68909
G1 X15.147 Y19.196 E129.72864
G1 X15.589 Y15.82 E129.84188
G1 X17.224 Y11.885 E129.98361
G0 F9000 X17.574 Y12.085
G1 F1800 X20.092 Y8.8 E130.12127
G1 X23.385 Y6.276 E130.25927
G1 X27.231 Y4.678 E130.39779
G1 X30.574 Y4.242 E130.50992
G1 X188.698 Y4.2 E135.76915
G1 X192.801 Y4.688 E135.90657
G1 X196.596 Y6.259 E136.04318
G1 X199.894 Y8.786 E136.18137
G1 X202.432 Y12.097 E136.32013
G1 X204.019 Y15.916 E136.45768
G1 X204.458 Y19.271 E136.57022
G1 X204.456 Y200.752 E142.6063
G1 X204.021 Y204.077 E142.71783
G1 X202.426 Y207.915 E142.85607
G1 X199.908 Y211.2 E142.99374
G1 X196.615 Y213.724 E143.13173
G1 X192.769 Y215.322 E143.27025
G1 X189.426 Y215.758 E143.38238
G1 X30.548 Y215.756 E148.66669
G1 X27.227 Y215.321 E148.77809
G1 X23.389 Y213.726 E148.91633
G1 X20.088 Y211.196 E149.05465
G1 X17.572 Y207.913 E149.19223
G1 X15.98 Y204.082 E149.33021
G1 X15.542 Y200.729 E149.44268
G1 X15.544 Y19.248 E155.47876
G1 X15.979 Y15.923 E155.59029
G1 X17.574 Y12.085 E155.72853
G0 F9000 X17.923 Y12.286
G1 F1800 X20.377 Y9.085 E155.86268
G1 X23.586 Y6.625 E155.99717
G1 X27.332 Y5.069 E156.13208
G1 X30.626 Y4.639 E156.24257
G1 X188.698 Y4.6 E161.50007
G1 X192.697 Y5.078 E161.63402
G1 X196.395 Y6.609 E161.76714
G1 X199.611 Y9.073 E161.90189
G1 X202.082 Y12.297 E162.03699
G1 X203.629 Y16.019 E162.17106
G1 X204.061 Y19.323 E162.28188
G1 X204.059 Y200.7 E168.31451
G1 X203.63 Y203.976 E168.4244
G1 X202.077 Y207.714 E168.55903
G1 X199.623 Y210.915 E168.69318
G1 X196.414 Y213.375 E168.82766
G1 X192.668 Y214.931 E168.96258
G1 X189.374 Y215.361 E169.07306
G1 X30.6 Y215.359 E174.35391
G1 X27.33 Y214.931 E174.4636
G1 X23.589 Y213.376 E174.59834
G1 X20.375 Y210.913 E174.73302
G1 X17.92 Y207.709 E174.86727
G1 X16.371 Y203.981 E175.00154
G1 X15.939 Y200.677 E175.11237
G1 X15.941 Y19.3 E181.145
G1 X16.37 Y16.024 E181.25489
G1 X17.923 Y12.286 E181.38952
G0 F9000 X18.272 Y12.489
G1 F1800 X20.662 Y9.37 E181.52021
G1 X23.789 Y6.974 E181.65123
G1 X27.434 Y5.459 E181.78252
G1 X30.678 Y5.036 E181.89133
G1 X188.698 Y5 E187.1471
G1 X192.593 Y5.468 E187.27758
G1 X196.194 Y6.959 E187.40721
G1 X199.328 Y9.36 E187.53852
G1 X201.733 Y12.498 E187.67002
G1 X203.238 Y16.12 E187.80047
G1 X203.664 Y19.375 E187.90966
G1 X203.662 Y200.648 E193.93882
G1 X203.24 Y203.873 E194.047
G1 X201.728 Y207.511 E194.17803
G1 X199.338 Y210.63 E194.30873
G1 X196.211 Y213.026 E194.43975
G1 X192.566 Y214.541 E194.57104
G1 X189.322 Y214.964 E194.67985
G1 X30.652 Y214.962 E199.95723
G1 X27.431 Y214.54 E200.06528
G1 X23.79 Y213.027 E200.19642
G1 X20.66 Y210.628 E200.32759
G1 X18.269 Y207.508 E200.45832
G1 X16.762 Y203.88 E200.58899
G1 X16.336 Y200.625 E200.69817
G1 X16.338 Y19.352 E206.72734
G1 X16.76 Y16.127 E206.83552
G1 X18.272 Y12.489 E206.96655
G0 F9000 X18.621 Y12.69
G1 F1800 X20.947 Y9.655 E207.09373
G1 X23.99 Y7.323 E207.22124
G1 X27.535 Y5.85 E207.34892
G1 X30.73 Y5.433 E207.45609
G1 X188.698 Y5.4 E212.71013
G1 X192.489 Y5.858 E212.83714
G1 X195.996 Y7.31 E212.96338
G1 X199.043 Y9.645 E213.09106
G1 X201.384 Y12.699 E213.21905
G1 X202.847 Y16.221 E213.34589
G1 X203.267 Y19.427 E213.45344
G1 X203.265 Y200.596 E219.47914
G1 X202.849 Y203.772 E219.58568
G1 X201.379 Y207.31 E219.7131
G1 X199.053 Y210.345 E219.84028
G1 X196.01 Y212.677 E219.9678
G1 X192.465 Y214.15 E220.09548
G1 X189.27 Y214.567 E220.20265
G1 X30.704 Y214.565 E225.47657
G1 X27.534 Y214.15 E225.58291
G1 X23.99 Y212.677 E225.71056
G1 X20.945 Y210.343 E225.83816
G1 X18.618 Y207.307 E225.96539
G1 X17.153 Y203.779 E226.09245
G1 X16.733 Y200.573 E226.19999
G1 X16.735 Y19.404 E232.22569
G1 X17.151 Y16.228 E232.33223
G1 X18.621 Y12.69 E232.45966
G0 F9000 X18.969 Y12.894
G1 F1800 X21.234 Y9.938 E232.58352
G1 X24.191 Y7.672 E232.70743
G1 X27.636 Y6.241 E232.8315
G1 X30.782 Y5.83 E232.93702
G1 X188.698 Y5.8 E238.18933
G1 X192.385 Y6.248 E238.31286
G1 X195.795 Y7.66 E238.43562
G1 X198.76 Y9.932 E238.55986
G1 X201.035 Y12.9 E238.68424
G1 X202.456 Y16.322 E238.80748
G1 X202.87 Y19.479 E238.91338
G1 X202.868 Y200.544 E244.93563
G1 X202.458 Y203.671 E245.04052
G1 X201.031 Y207.106 E245.16424
G1 X198.766 Y210.062 E245.2881
G1 X195.809 Y212.328 E245.412
G1 X192.364 Y213.759 E245.53608
G1 X189.218 Y214.17 E245.6416
G1 X30.756 Y214.168 E250.91207
G1 X27.635 Y213.759 E251.01676
G1 X24.191 Y212.328 E251.14081
G1 X21.23 Y210.058 E251.2649
G1 X18.967 Y207.106 E251.38861
G1 X17.544 Y203.678 E251.51206
G1 X17.13 Y200.521 E251.61796
G1 X17.132 Y19.456 E257.64021
G1 X17.542 Y16.329 E257.74511
G1 X18.969 Y12.894 E257.86882
G0 F9000 X19.318 Y13.095
G1 F1800 X21.519 Y10.223 E257.98917
G1 X24.391 Y8.022 E258.10952
G1 X27.738 Y6.631 E258.23007
G1 X30.834 Y6.227 E258.33392
G1 X188.698 Y6.2 E263.58449
G1 X192.281 Y6.638 E263.70455
G1 X195.594 Y8.01 E263.82382
G1 X198.477 Y10.219 E263.94462
G1 X200.686 Y13.101 E264.06539
G1 X202.065 Y16.423 E264.18502
G1 X202.473 Y19.531 E264.28928
G1 X202.471 Y200.492 E270.30807
G1 X202.067 Y203.57 E270.41132
G1 X200.682 Y206.905 E270.53143
G1 X198.481 Y209.777 E270.65178
G1 X195.609 Y211.978 E270.77213
G1 X192.262 Y213.369 E270.89268
G1 X189.166 Y213.773 E270.99653
G1 X30.808 Y213.771 E276.26354
G1 X27.738 Y213.369 E276.36652
G1 X24.394 Y211.979 E276.48696
G1 X21.515 Y209.773 E276.6076
G1 X19.315 Y206.902 E276.7279
G1 X17.935 Y203.577 E276.84764
G1 X17.527 Y200.469 E276.9519
G1 X17.529 Y19.508 E282.97068
G1 X17.933 Y16.43 E283.07394
G1 X19.318 Y13.095 E283.19404
G0 F9000 X19.667 Y13.296
G1 F1800 X21.804 Y10.508 E283.31088
G1 X24.592 Y8.371 E283.42772
G1 X27.839 Y7.022 E283.54466
G1 X30.886 Y6.624 E283.64686
G1 X188.698 Y6.6 E288.89571
G1 X192.177 Y7.028 E289.0123
G1 X195.393 Y8.36 E289.12807
G1 X198.194 Y10.506 E289.24544
G1 X200.337 Y13.302 E289.3626
G1 X201.674 Y16.524 E289.47863
G1 X202.076 Y19.583 E289.58125
G1 X202.074 Y200.44 E295.59657
G1 X201.676 Y203.469 E295.69818
G1 X200.333 Y206.704 E295.81468
G1 X198.196 Y209.492 E295.93152
G1 X195.408 Y211.629 E296.04836
G1 X192.161 Y212.978 E296.1653
G1 X189.114 Y213.376 E296.26751
G1 X30.86 Y213.374 E301.53106
G1 X27.839 Y212.978 E301.63239
G1 X24.595 Y211.63 E301.74923
G1 X21.8 Y209.488 E301.86636
G1 X19.664 Y206.701 E301.98315
G1 X18.326 Y203.476 E302.09928
G1 X17.924 Y200.417 E302.20189
G1 X17.926 Y19.56 E308.21722
G1 X18.324 Y16.531 E308.31883
G1 X19.667 Y13.296 E308.43533
G0 F9000 X20.015 Y13.5
G1 F1800 X22.089 Y10.793 E308.54876
G1 X24.796 Y8.719 E308.66218
G1 X27.94 Y7.413 E308.77541
G1 X30.938 Y7.021 E308.87597
G1 X188.698 Y7 E314.12309
G1 X192.073 Y7.418 E314.2362
G1 X195.195 Y8.711 E314.34859
G1 X197.909 Y10.791 E314.46232
G1 X199.988 Y13.503 E314.57598
G1 X201.283 Y16.625 E314.6884
G1 X201.679 Y19.635 E314.78937
G1 X201.677 Y200.388 E320.80124
G1 X201.285 Y203.368 E320.90121
G1 X199.985 Y206.5 E321.014
G1 X197.911 Y209.207 E321.12742
G1 X195.204 Y211.281 E321.24084
G1 X192.06 Y212.587 E321.35408
G1 X189.062 Y212.979 E321.45464
G1 X30.912 Y212.977 E326.71473
G1 X27.94 Y212.587 E326.81443
G1 X24.796 Y211.281 E326.92766
G1 X22.087 Y209.205 E327.04118
G1 X20.012 Y206.497 E327.15465
G1 X18.717 Y203.375 E327.26706
G1 X18.321 Y200.365 E327.36804
G1 X18.323 Y19.612 E333.37991
G1 X18.715 Y16.632 E333.47988
G1 X20.015 Y13.5 E333.59266
G0 F9000 X20.364 Y13.701
G1 F1800 X22.374 Y11.078 E333.70258
G1 X24.997 Y9.068 E333.81249
G1 X28.041 Y7.804 E333.92211
G1 X30.99 Y7.418 E334.02103
G1 X188.698 Y7.4 E339.26642
G1 X191.969 Y7.808 E339.37606
G1 X194.994 Y9.061 E339.48496
G1 X197.624 Y11.076 E339.59516
G1 X199.64 Y13.707 E339.7054
G1 X200.892 Y16.726 E339.8141
G1 X201.282 Y19.687 E339.91344
G1 X201.28 Y200.336 E345.92185
G1 X200.894 Y203.267 E346.02018
G1 X199.636 Y206.299 E346.12936
G1 X197.626 Y208.922 E346.23927
G1 X195.003 Y210.932 E346.34918
G1 X191.959 Y212.196 E346.4588
G1 X189.01 Y212.582 E346.55772
G1 X30.964 Y212.58 E351.81436
G1 X28.041 Y212.196 E351.91241
G1 X24.997 Y210.932 E352.02204
G1 X22.374 Y208.922 E352.13195
G1 X20.36 Y206.293 E352.2421
G1 X19.108 Y203.274 E352.3508
G1 X18.718 Y200.313 E352.45013
G1 X18.72 Y19.664 E358.45854
G1 X19.106 Y16.733 E358.55687
G1 X20.364 Y13.701 E358.66605
G0 F9000 X20.713 Y13.902
G1 F1800 X22.659 Y11.363 E358.77245
G1 X25.198 Y9.417 E358.87885
G1 X28.142 Y8.195 E358.98487
G1 X31.042 Y7.815 E359.08215
G1 X188.698 Y7.8 E364.32581
G1 X191.865 Y8.198 E364.43197
G1 X194.796 Y9.412 E364.53749
G1 X197.339 Y11.361 E364.64405
G1 X199.289 Y13.905 E364.75066
G1 X200.502 Y16.831 E364.85601
G1 X200.885 Y19.739 E364.95357
G1 X200.883 Y200.284 E370.95852
G1 X200.503 Y203.166 E371.0552
G1 X199.287 Y206.098 E371.16078
G1 X197.341 Y208.637 E371.26718
G1 X194.802 Y210.583 E371.37357
G1 X191.858 Y211.805 E371.47959
G1 X188.958 Y212.185 E371.57687
G1 X31.016 Y212.183 E376.83004
G1 X28.142 Y211.805 E376.92646
G1 X25.198 Y210.583 E377.03247
G1 X22.659 Y208.637 E377.13887
G1 X20.711 Y206.095 E377.24539
G1 X19.498 Y203.169 E377.35074
G1 X19.115 Y200.261 E377.4483
G1 X19.117 Y19.716 E383.45325
G1 X19.497 Y16.834 E383.54993
G1 X20.713 Y13.902 E383.65551
G0 F9000 X21.061 Y14.106
G1 F1800 X22.946 Y11.646 E383.75858
G1 X25.399 Y9.766 E383.86138
G1 X28.243 Y8.586 E383.96379
G1 X31.094 Y8.212 E384.05942
G1 X188.698 Y8.2 E389.30135
G1 X191.761 Y8.588 E389.40404
G1 X194.595 Y9.762 E389.50607
G1 X197.054 Y11.646 E389.6091
G1 X198.939 Y14.106 E389.71218
G1 X200.112 Y16.936 E389.81407
G1 X200.488 Y19.791 E389.90985
G1 X200.486 Y200.232 E395.91134
G1 X200.112 Y203.065 E396.00639
G1 X198.939 Y205.894 E396.10825
G1 X197.054 Y208.354 E396.21133
G1 X194.601 Y210.234 E396.31412
G1 X191.757 Y211.414 E396.41653
G1 X188.906 Y211.788 E396.51217
G1 X31.068 Y211.786 E401.76188
G1 X28.243 Y211.414 E401.85665
G1 X25.399 Y210.234 E401.95906
G1 X22.946 Y208.354 E402.06185
G1 X21.061 Y205.894 E402.16493
G1 X19.888 Y203.064 E402.26682
G1 X19.512 Y200.209 E402.3626
G1 X19.514 Y19.768 E408.36409
G1 X19.888 Y16.935 E408.45914
G1 X21.061 Y14.106 E408.561
G0 F9000 X21.412 Y14.304
G1 F1800 X23.231 Y11.931 E408.66044
G1 X25.6 Y10.115 E408.75972
G1 X28.344 Y8.977 E408.85853
G1 X31.146 Y8.609 E408.95252
G1 X188.698 Y8.6 E414.19272
G1 X191.657 Y8.978 E414.29194
G1 X194.397 Y10.113 E414.39058
G1 X196.769 Y11.931 E414.48998
G1 X198.588 Y14.304 E414.58943
G1 X199.722 Y17.041 E414.68797
G1 X200.091 Y19.843 E414.78197
G1 X200.089 Y200.18 E420.78
G1 X199.722 Y202.96 E420.87326
G1 X198.588 Y205.696 E420.97177
G1 X196.769 Y208.069 E421.07122
G1 X194.4 Y209.885 E421.1705
G1 X191.656 Y211.023 E421.2693
G1 X188.854 Y211.391 E421.3633
G1 X31.12 Y211.389 E426.60955
G1 X28.344 Y211.023 E426.70268
G1 X25.6 Y209.885 E426.80148
G1 X23.231 Y208.069 E426.90076
G1 X21.412 Y205.696 E427.00021
G1 X20.278 Y202.959 E427.09875
G1 X19.909 Y200.157 E427.19275
G1 X19.911 Y19.82 E433.19078
G1 X20.278 Y17.04 E433.28404
G1 X21.412 Y14.304 E433.38255
G0 F9000 X21.762 Y14.505
G1 F1800 X23.516 Y12.216 E433.47847
G1 X25.804 Y10.463 E433.57433
G1 X28.445 Y9.368 E433.66942
G1 X31.198 Y9.006 E433.76178
G1 X188.698 Y9 E439.00025
G1 X191.553 Y9.368 E439.09599
G1 X194.196 Y10.463 E439.19114
