;FLAVOR:Marlin
;TIME:1920
;Filament used: 1.7588m
;Layer height: 0.2
;MINX:16.618
;MINY:76.499
;MINZ:0.2
;MAXX:59.045
;MAXY:153.21
;MAXZ:15.2
;TARGET_MACHINE.NAME:Creality Ender-3 V3 SE
;Generated with Cura_SteamEngine 5.8.1
M82 ;absolute extrusion mode
M220 S100 ;Reset Feedrate
M221 S100 ;Reset Flowrate

G28 ;Home

M420 S1; Use saved mesh leveling data

G92 E0 ;Reset Extruder
G1 Z2.0 F3000 ;Move Z Axis up
G1 X-3 Y20 Z0.28 F5000.0 ;Move to start position
M190 S65 ; Set bed temperature and wait
M109 S205.0 ; Set hotend temperature and wait
G1 X-3 Y100.0 Z0.28 F1500.0 E15 ;Draw the first line
G1 X-2 Y100.0 Z0.28 F5000.0 ;Move to side a little
G1 X-2 Y20 Z0.28 F1500.0 E30 ;Draw the second line
G92 E0 ;Reset Extruder
G1 E-1.0000 F1800 ;Retract a bit
G1 Z2.0 F3000 ;Move Z Axis up
G1 E0.0000 F1800 

G92 E0
G92 E0
G1 F2400 E-0.8
;LAYER_COUNT:75
;LAYER:0
M107
G1 F300 Z0.4
G0 F9000 X21.6 Y76.944 Z0.4
;TYPE:SKIRT
G1 F300 Z0.2
G1 F2400 E0
G1 F1800 X23.731 Y76.506 E0.07236
G1 X52.076 Y76.499 E1.01512
G1 X54.197 Y77.169 E1.0891
G1 X55.903 Y78.144 E1.15445
G1 X57.648 Y79.983 E1.23877
G1 X58.793 Y82.271 E1.32387
G1 X59.001 Y83.836 E1.37638
G1 X59.045 Y136.461 E3.12669
G1 X58.486 Y138.387 E3.1934
G1 X57.608 Y140.064 E3.25636
G1 X55.897 Y141.861 E3.33888
G1 X53.812 Y143.034 E3.41845
G1 X53.221 Y143.256 E3.43945
G1 X51.63 Y143.465 E3.49282
G1 X42.897 Y143.492 E3.78328
G1 X42.116 Y146.322 E3.88093
G1 X41.119 Y148.225 E3.95238
G1 X38.538 Y150.845 E4.07471
G1 X36.795 Y152.015 E4.14453
G1 X33.142 Y153.048 E4.27079
G1 X30.835 Y153.21 E4.34771
G1 X26.985 Y152.068 E4.48128
G1 X25.268 Y151.137 E4.54624
G1 X22.53 Y148.35 E4.67618
G1 X21.471 Y146.714 E4.741
G1 X20.412 Y143.055 E4.8677
G1 X20.363 Y142.346 E4.89133
G1 X19.644 Y141.973 E4.91827
G1 X18.216 Y140.441 E4.98793
G1 X17.133 Y138.631 E5.05809
G1 X16.868 Y137.67 E5.09124
G1 X16.654 Y136.134 E5.14282
G1 X16.618 Y132.105 E5.27683
G1 X16.618 Y87.93 E6.7461
G1 X16.626 Y83.423 E6.896
G1 X17.081 Y81.548 E6.96018
G1 X18.169 Y79.495 E7.03746
G1 X19.74 Y78.058 E7.10827
G1 X21.6 Y76.944 E7.18038
G0 F9000 X21.747 Y77.322
G1 F1800 X23.772 Y76.906 E7.24914
G1 X52.016 Y76.899 E8.18854
G1 X54.033 Y77.536 E8.25889
G1 X55.654 Y78.463 E8.321
G1 X57.316 Y80.214 E8.40129
G1 X58.405 Y82.389 E8.4822
G1 X58.604 Y83.889 E8.53252
G1 X58.645 Y136.404 E10.27918
G1 X58.112 Y138.24 E10.34277
G1 X57.282 Y139.826 E10.4023
G1 X55.648 Y141.542 E10.48111
G1 X53.616 Y142.685 E10.55866
G1 X53.123 Y142.866 E10.57612
G1 X51.629 Y143.065 E10.62625
G1 X42.592 Y143.093 E10.92683
G1 X41.741 Y146.176 E11.0332
G1 X40.793 Y147.986 E11.10116
G1 X38.28 Y150.536 E11.22024
G1 X36.625 Y151.647 E11.28654
G1 X33.072 Y152.652 E11.40935
G1 X30.878 Y152.806 E11.4825
G1 X27.143 Y151.698 E11.61208
G1 X25.509 Y150.812 E11.6739
G1 X22.845 Y148.1 E11.80034
G1 X21.838 Y146.545 E11.86196
G1 X20.808 Y142.986 E11.98519
G1 X20.746 Y142.095 E12.01489
G1 X19.891 Y141.651 E12.04694
G1 X18.535 Y140.196 E12.11309
G1 X17.506 Y138.475 E12.17978
G1 X17.254 Y137.563 E12.21125
G1 X17.054 Y136.13 E12.25937
G1 X17.018 Y132.101 E12.39338
G1 X17.018 Y87.93 E13.86252
G1 X17.026 Y83.472 E14.01079
G1 X17.459 Y81.688 E14.07185
G1 X18.489 Y79.744 E14.14502
G1 X19.979 Y78.381 E14.21219
G1 X21.747 Y77.322 E14.28073
G0 F9000 X21.894 Y77.7
G1 F1800 X23.813 Y77.306 E14.34589
G1 X51.955 Y77.299 E15.2819
G1 X53.873 Y77.905 E15.3488
G1 X55.404 Y78.78 E15.40745
G1 X56.984 Y80.445 E15.48379
G1 X58.017 Y82.507 E15.5605
G1 X58.207 Y83.942 E15.60865
G1 X58.245 Y136.347 E17.35164
G1 X57.738 Y138.093 E17.41211
G1 X56.956 Y139.588 E17.46823
G1 X55.399 Y141.223 E17.54332
G1 X53.42 Y142.336 E17.61884
G1 X53.028 Y142.475 E17.63267
G1 X51.576 Y142.668 E17.68139
G1 X42.287 Y142.694 E17.99035
G1 X41.365 Y146.032 E18.10553
G1 X40.468 Y147.746 E18.16987
G1 X38.022 Y150.227 E18.28575
G1 X36.455 Y151.279 E18.34852
G1 X33.002 Y152.256 E18.46788
G1 X30.921 Y152.402 E18.53726
G1 X27.301 Y151.328 E18.66285
G1 X25.75 Y150.487 E18.72153
G1 X23.16 Y147.85 E18.84447
G1 X22.205 Y146.376 E18.90289
G1 X21.204 Y142.917 E19.02265
G1 X21.129 Y141.844 E19.05843
G1 X20.138 Y141.329 E19.09557
G1 X18.854 Y139.951 E19.15822
G1 X17.878 Y138.319 E19.22147
G1 X17.64 Y137.457 E19.25121
G1 X17.454 Y136.126 E19.29591
G1 X17.418 Y132.097 E19.42992
G1 X17.418 Y87.93 E20.89892
G1 X17.426 Y83.521 E21.04556
G1 X17.837 Y81.828 E21.10351
G1 X18.809 Y79.993 E21.17257
G1 X20.218 Y78.704 E21.23609
G1 X21.894 Y77.7 E21.30107
G0 F9000 X22.041 Y78.078
G1 F1800 X23.854 Y77.706 E21.36263
G1 X27.859 Y77.699 E21.49583
G1 X51.895 Y77.699 E22.29527
G1 X53.712 Y78.273 E22.35865
G1 X55.154 Y79.097 E22.41389
G1 X56.652 Y80.676 E22.48628
G1 X57.629 Y82.626 E22.55883
G1 X57.81 Y83.994 E22.60472
G1 X57.845 Y136.29 E24.34409
G1 X57.364 Y137.946 E24.40145
G1 X56.63 Y139.35 E24.45414
G1 X55.15 Y140.904 E24.52552
G1 X53.224 Y141.987 E24.59901
G1 X52.938 Y142.083 E24.60905
G1 X51.523 Y142.271 E24.65652
G1 X41.982 Y142.295 E24.97386
G1 X40.989 Y145.889 E25.09787
G1 X40.143 Y147.506 E25.15857
G1 X37.764 Y149.918 E25.27125
G1 X36.285 Y150.911 E25.3305
G1 X32.932 Y151.86 E25.4464
G1 X30.964 Y151.998 E25.51202
G1 X27.459 Y150.958 E25.63362
G1 X25.991 Y150.162 E25.68916
G1 X23.477 Y147.602 E25.8085
G1 X22.572 Y146.206 E25.86383
G1 X21.6 Y142.848 E25.98011
G1 X21.513 Y141.593 E26.02195
G1 X20.385 Y141.007 E26.06423
G1 X19.173 Y139.706 E26.12337
G1 X18.249 Y138.161 E26.18324
G1 X18.036 Y137.401 E26.20949
G1 X17.854 Y136.122 E26.25246
G1 X17.818 Y132.093 E26.38647
G1 X17.818 Y87.93 E27.85534
G1 X17.826 Y83.57 E28.00035
G1 X18.215 Y81.968 E28.05518
G1 X19.129 Y80.242 E28.12014
G1 X20.457 Y79.027 E28.18001
G1 X22.041 Y78.078 E28.24143
G0 F9000 X22.188 Y78.456
G1 F1800 X23.895 Y78.106 E28.29938
G1 X27.86 Y78.099 E28.43126
G1 X51.835 Y78.099 E29.22867
G1 X53.551 Y78.641 E29.28852
G1 X54.904 Y79.414 E29.34035
G1 X56.32 Y80.907 E29.40879
G1 X57.241 Y82.745 E29.47717
G1 X57.413 Y84.046 E29.52082
G1 X57.445 Y136.233 E31.25656
G1 X56.991 Y137.797 E31.31073
G1 X56.302 Y139.113 E31.36014
G1 X54.901 Y140.585 E31.42772
G1 X53.028 Y141.638 E31.49919
G1 X52.885 Y141.686 E31.50421
G1 X51.47 Y141.874 E31.55168
G1 X41.542 Y141.896 E31.88189
G1 X41.571 Y142.279 E31.89467
G1 X40.613 Y145.746 E32.0143
G1 X39.818 Y147.266 E32.07135
G1 X37.506 Y149.609 E32.18083
G1 X36.115 Y150.543 E32.23656
G1 X32.862 Y151.464 E32.34901
G1 X31.007 Y151.594 E32.41086
G1 X27.617 Y150.588 E32.52847
G1 X26.232 Y149.837 E32.58087
G1 X23.794 Y147.354 E32.69661
G1 X22.939 Y146.035 E32.74889
G1 X21.996 Y142.779 E32.86164
G1 X21.897 Y141.341 E32.90958
G1 X20.632 Y140.685 E32.95697
G1 X19.492 Y139.461 E33.01261
G1 X18.621 Y138.004 E33.06907
G1 X18.432 Y137.343 E33.09193
G1 X18.254 Y136.118 E33.1331
G1 X18.218 Y132.089 E33.26711
G1 X18.218 Y87.93 E34.73585
G1 X18.226 Y83.619 E34.87923
G1 X18.592 Y82.112 E34.93081
G1 X19.451 Y80.489 E34.99189
G1 X20.696 Y79.35 E35.04801
G1 X22.188 Y78.456 E35.10586
G0 F9000 X22.335 Y78.834
G1 F1800 X23.936 Y78.506 E35.16022
G1 X27.861 Y78.499 E35.29076
G1 X51.775 Y78.499 E36.08615
G1 X53.387 Y79.008 E36.14237
G1 X54.655 Y79.733 E36.19095
G1 X55.988 Y81.138 E36.25537
G1 X56.853 Y82.864 E36.31958
G1 X57.016 Y84.098 E36.36098
G1 X57.045 Y136.176 E38.0931
G1 X56.617 Y137.65 E38.14415
G1 X55.976 Y138.875 E38.19014
G1 X54.652 Y140.266 E38.25401
G1 X52.832 Y141.289 E38.32345
G1 X51.417 Y141.477 E38.37093
G1 X41.111 Y141.497 E38.71371
G1 X41.167 Y142.239 E38.73845
G1 X40.237 Y145.603 E38.85454
G1 X39.493 Y147.026 E38.90795
G1 X37.248 Y149.3 E39.01423
G1 X35.945 Y150.175 E39.06643
G1 X32.792 Y151.068 E39.17543
G1 X31.05 Y151.19 E39.23351
G1 X27.775 Y150.218 E39.34713
G1 X26.473 Y149.512 E39.39639
G1 X24.111 Y147.106 E39.50853
G1 X23.306 Y145.864 E39.55776
G1 X22.392 Y142.71 E39.66698
G1 X22.281 Y141.09 E39.72099
G1 X20.879 Y140.363 E39.77351
G1 X19.811 Y139.216 E39.82564
G1 X18.992 Y137.845 E39.87876
G1 X18.828 Y137.284 E39.8982
G1 X18.654 Y136.114 E39.93754
G1 X18.618 Y132.085 E40.07155
G1 X18.618 Y87.93 E41.54015
G1 X18.626 Y83.668 E41.6819
G1 X18.969 Y82.256 E41.73023
G1 X19.773 Y80.736 E41.78743
G1 X20.935 Y79.673 E41.83981
G1 X22.335 Y78.834 E41.89409
G0 F9000 X22.482 Y79.212
G1 F1800 X23.977 Y78.906 E41.94485
G1 X27.862 Y78.899 E42.07406
G1 X51.714 Y78.899 E42.86738
G1 X53.227 Y79.377 E42.92016
G1 X54.405 Y80.05 E42.96528
G1 X55.656 Y81.369 E43.02574
G1 X56.465 Y82.983 E43.08579
G1 X56.619 Y84.15 E43.12494
G1 X56.645 Y136.119 E44.85344
G1 X56.244 Y137.5 E44.90127
G1 X55.648 Y138.638 E44.944
G1 X54.403 Y139.947 E45.00408
G1 X52.704 Y140.902 E45.06891
G1 X51.364 Y141.08 E45.11387
G1 X40.68 Y141.098 E45.46922
G1 X40.763 Y142.198 E45.50591
G1 X39.862 Y145.456 E45.61834
G1 X39.166 Y146.788 E45.66832
G1 X36.99 Y148.991 E45.77131
G1 X35.775 Y149.807 E45.81999
G1 X32.722 Y150.672 E45.92553
G1 X31.093 Y150.786 E45.97984
G1 X27.933 Y149.848 E46.08948
G1 X26.714 Y149.187 E46.1356
G1 X24.428 Y146.858 E46.24414
G1 X23.673 Y145.693 E46.29032
G1 X22.788 Y142.641 E46.39601
G1 X22.678 Y141.093 E46.44762
G1 X22.732 Y140.819 E46.45691
G1 X22.493 Y140.749 E46.4652
G1 X21.124 Y140.04 E46.51647
G1 X20.132 Y138.974 E46.56491
G1 X19.361 Y137.684 E46.61489
G1 X19.224 Y137.225 E46.63082
G1 X19.05 Y136.055 E46.67016
G1 X19.018 Y132.082 E46.80231
G1 X19.018 Y87.93 E48.27081
G1 X19.026 Y83.717 E48.41094
G1 X19.346 Y82.4 E48.45602
G1 X20.095 Y80.983 E48.50932
G1 X21.174 Y79.996 E48.55796
G1 X22.482 Y79.212 E48.60868
G0 F9000 X22.629 Y79.59
G1 F1800 X24.018 Y79.306 E48.65584
G1 X27.863 Y79.299 E48.78372
G1 X51.654 Y79.299 E49.57501
G1 X53.066 Y79.745 E49.62426
G1 X54.155 Y80.367 E49.66598
G1 X55.324 Y81.6 E49.72249
G1 X56.077 Y83.102 E49.77837
G1 X56.222 Y84.202 E49.81527
G1 X56.245 Y136.062 E51.54014
G1 X55.87 Y137.353 E51.58486
G1 X55.322 Y138.4 E51.62416
G1 X54.154 Y139.628 E51.68053
G1 X52.576 Y140.515 E51.74074
G1 X51.311 Y140.683 E51.78318
G1 X40.248 Y140.699 E52.15114
G1 X40.359 Y142.157 E52.19977
G1 X39.486 Y145.313 E52.30868
G1 X38.841 Y146.547 E52.35499
G1 X36.732 Y148.682 E52.45481
G1 X35.605 Y149.439 E52.49996
G1 X32.652 Y150.276 E52.60205
G1 X31.136 Y150.382 E52.6526
G1 X28.091 Y149.478 E52.75824
G1 X26.955 Y148.862 E52.80122
G1 X24.745 Y146.61 E52.90617
G1 X24.04 Y145.522 E52.94929
G1 X23.184 Y142.572 E53.05145
G1 X23.077 Y141.065 E53.1017
G1 X23.232 Y140.531 E53.12019
G1 X22.677 Y140.394 E53.13921
G1 X21.369 Y139.717 E53.18819
G1 X20.453 Y138.732 E53.23293
G1 X19.731 Y137.523 E53.27977
G1 X19.62 Y137.166 E53.2922
G1 X19.446 Y135.996 E53.33155
G1 X19.418 Y132.079 E53.46183
G1 X19.418 Y87.93 E54.93023
G1 X19.426 Y83.766 E55.06873
G1 X19.723 Y82.544 E55.11055
G1 X20.417 Y81.23 E55.15998
G1 X21.413 Y80.319 E55.20487
G1 X22.629 Y79.59 E55.25203
G0 F9000 X22.776 Y79.968
G1 F1800 X24.059 Y79.706 E55.29558
G1 X27.864 Y79.699 E55.42214
G1 X51.594 Y79.699 E56.2114
G1 X52.902 Y80.112 E56.25702
G1 X53.906 Y80.686 E56.29549
G1 X54.992 Y81.831 E56.34797
G1 X55.689 Y83.221 E56.39969
G1 X55.825 Y84.254 E56.43435
G1 X55.845 Y136.005 E58.15559
G1 X55.497 Y137.203 E58.19708
G1 X54.994 Y138.163 E58.23313
G1 X53.905 Y139.309 E58.28571
G1 X52.448 Y140.128 E58.3413
G1 X51.258 Y140.286 E58.38123
G1 X39.721 Y140.3 E58.76495
G1 X39.855 Y140.76 E58.78089
G1 X39.955 Y142.116 E58.82611
G1 X39.11 Y145.17 E58.9315
G1 X38.516 Y146.306 E58.97414
G1 X36.474 Y148.373 E59.07078
G1 X35.435 Y149.071 E59.11241
G1 X32.582 Y149.88 E59.21104
G1 X31.179 Y149.978 E59.25782
G1 X28.249 Y149.108 E59.35948
G1 X27.196 Y148.537 E59.39932
G1 X25.06 Y146.361 E59.50074
G1 X24.407 Y145.353 E59.54068
G1 X23.58 Y142.503 E59.63938
G1 X23.481 Y141.107 E59.68593
G1 X23.732 Y140.242 E59.71589
G1 X22.82 Y140.018 E59.74712
G1 X21.614 Y139.394 E59.79229
G1 X20.774 Y138.49 E59.83333
G1 X20.099 Y137.36 E59.87711
G1 X20.016 Y137.107 E59.88597
G1 X19.842 Y135.937 E59.92531
G1 X19.818 Y132.077 E60.05369
G1 X19.818 Y87.93 E61.52203
G1 X19.826 Y83.815 E61.6589
G1 X20.1 Y82.687 E61.6975
G1 X20.739 Y81.477 E61.74302
G1 X21.652 Y80.642 E61.78417
G1 X22.776 Y79.968 E61.82776
G0 F9000 X22.923 Y80.346
G1 F1800 X24.1 Y80.106 E61.86771
G1 X27.865 Y80.099 E61.99293
G1 X51.533 Y80.099 E62.78014
G1 X52.742 Y80.481 E62.82231
G1 X53.656 Y81.003 E62.85731
G1 X54.66 Y82.062 E62.90585
G1 X55.301 Y83.34 E62.9534
G1 X55.428 Y84.306 E62.98581
G1 X55.445 Y135.948 E64.70343
G1 X55.124 Y137.053 E64.7417
G1 X54.665 Y137.929 E64.77459
G1 X53.658 Y138.989 E64.82322
G1 X52.32 Y139.741 E64.87427
G1 X51.205 Y139.889 E64.91168
G1 X39.187 Y139.901 E65.3114
G1 X39.459 Y140.831 E65.34363
G1 X39.551 Y142.075 E65.38512
G1 X38.734 Y145.027 E65.48699
G1 X38.191 Y146.065 E65.52596
G1 X36.216 Y148.064 E65.61942
G1 X35.265 Y148.703 E65.65753
G1 X32.512 Y149.484 E65.75271
G1 X31.222 Y149.574 E65.79572
G1 X28.407 Y148.738 E65.89339
G1 X27.437 Y148.212 E65.93009
G1 X25.375 Y146.112 E66.02797
G1 X24.774 Y145.184 E66.06475
G1 X23.976 Y142.434 E66.15999
G1 X23.885 Y141.15 E66.2028
G1 X24.25 Y139.894 E66.2463
G1 X23.941 Y139.882 E66.25659
G1 X22.963 Y139.642 E66.29008
G1 X21.859 Y139.071 E66.33142
G1 X21.095 Y138.248 E66.36877
G1 X20.465 Y137.194 E66.40961
G1 X20.412 Y137.048 E66.41478
G1 X20.238 Y135.878 E66.45412
G1 X20.218 Y132.075 E66.58061
G1 X20.218 Y87.93 E68.04888
G1 X20.226 Y83.864 E68.18411
G1 X20.477 Y82.83 E68.2195
G1 X21.061 Y81.724 E68.2611
G1 X21.891 Y80.965 E68.29851
G1 X22.923 Y80.346 E68.33854
G0 F9000 X23.07 Y80.724
G1 F1800 X24.141 Y80.506 E68.37489
G1 X27.866 Y80.499 E68.49878
G1 X51.473 Y80.499 E69.28395
G1 X52.581 Y80.849 E69.3226
G1 X53.406 Y81.32 E69.3542
G1 X54.328 Y82.293 E69.39878
G1 X54.913 Y83.459 E69.44217
G1 X55.031 Y84.358 E69.47233
G1 X55.045 Y135.891 E71.18632
G1 X54.751 Y136.903 E71.22137
G1 X54.336 Y137.695 E71.25111
G1 X53.411 Y138.669 E71.29579
G1 X52.192 Y139.354 E71.3423
G1 X51.152 Y139.492 E71.37719
G1 X38.654 Y139.501 E71.79288
G1 X39.063 Y140.902 E71.84142
G1 X39.147 Y142.037 E71.87927
G1 X38.361 Y144.876 E71.97725
G1 X37.863 Y145.829 E72.01301
G1 X35.961 Y147.753 E72.103
G1 X35.095 Y148.335 E72.1377
G1 X32.442 Y149.088 E72.22942
G1 X31.265 Y149.17 E72.26867
G1 X28.565 Y148.368 E72.36235
G1 X27.678 Y147.887 E72.39591
G1 X25.69 Y145.863 E72.49027
G1 X25.141 Y145.015 E72.52387
G1 X24.372 Y142.365 E72.61564
G1 X24.289 Y141.193 E72.65472
G1 X24.782 Y139.495 E72.71353
G1 X24.036 Y139.494 E72.73834
G1 X23.106 Y139.266 E72.77019
G1 X22.104 Y138.748 E72.8077
G1 X21.416 Y138.006 E72.84136
G1 X20.808 Y136.989 E72.88077
G1 X20.634 Y135.819 E72.92011
G1 X20.618 Y132.073 E73.0447
G1 X20.618 Y87.93 E74.51291
G1 X20.626 Y83.913 E74.64651
G1 X20.854 Y82.973 E74.67868
G1 X21.383 Y81.971 E74.71637
G1 X22.13 Y81.288 E74.75004
G1 X23.07 Y80.724 E74.7865
G0 F9000 X23.216 Y81.103
G1 F1800 X24.182 Y80.906 E74.81929
G1 X27.867 Y80.899 E74.94185
G1 X51.413 Y80.899 E75.72499
G1 X52.417 Y81.216 E75.76001
G1 X53.157 Y81.639 E75.78836
G1 X53.997 Y82.525 E75.82897
G1 X54.525 Y83.576 E75.86809
G1 X54.634 Y84.41 E75.89606
G1 X54.645 Y135.834 E77.60643
G1 X54.378 Y136.753 E77.63826
G1 X54.007 Y137.461 E77.66485
G1 X53.164 Y138.349 E77.70557
G1 X52.064 Y138.967 E77.74754
G1 X51.099 Y139.095 E77.77991
G1 X38.121 Y139.101 E78.21156
G1 X38.667 Y140.973 E78.27642
G1 X38.743 Y141.999 E78.31064
G1 X37.987 Y144.729 E78.40486
G1 X37.538 Y145.588 E78.4371
G1 X35.704 Y147.444 E78.52388
G1 X34.925 Y147.967 E78.55509
G1 X32.372 Y148.692 E78.64336
G1 X31.308 Y148.766 E78.67883
G1 X28.723 Y147.998 E78.76852
G1 X27.919 Y147.562 E78.79894
G1 X26.005 Y145.614 E78.88978
G1 X25.508 Y144.846 E78.9202
G1 X24.768 Y142.296 E79.00851
G1 X24.693 Y141.236 E79.04386
G1 X25.315 Y139.095 E79.11801
G1 X24.082 Y139.094 E79.15902
G1 X23.247 Y138.889 E79.18762
G1 X22.35 Y138.426 E79.22119
G1 X21.737 Y137.764 E79.2512
G1 X21.193 Y136.854 E79.28646
G1 X21.03 Y135.76 E79.32325
G1 X21.018 Y132.072 E79.44592
G1 X21.018 Y87.93 E80.91408
G1 X21.026 Y83.962 E81.04606
G1 X21.231 Y83.116 E81.07501
G1 X21.705 Y82.218 E81.10879
G1 X22.371 Y81.609 E81.1388
G1 X23.216 Y81.103 E81.17156
G0 F9000 X23.363 Y81.481
G1 F1800 X24.223 Y81.306 E81.20075
G1 X27.868 Y81.299 E81.32198
G1 X51.353 Y81.299 E82.1031
G1 X52.256 Y81.584 E82.13459
G1 X52.907 Y81.956 E82.15953
G1 X53.666 Y82.757 E82.19623
G1 X54.137 Y83.693 E82.23108
