;FLAVOR:Marlin
;TIME:4801
;Filament used: 4.75412m
;Layer height: 0.2
;MINX:24.743
;MINY:76.499
;MINZ:0.2
;MAXX:103.595
;MAXY:150.335
;MAXZ:15.2
;TARGET_MACHINE.NAME:Creality Ender-3 V3 SE
;Generated with Cura_SteamEngine 5.8.1
M82 ;absolute extrusion mode
M220 S100 ;Reset Feedrate
M221 S100 ;Reset Flowrate

G28 ;Home

M420 S1; Use saved mesh leveling data

G92 E0 ;Reset Extruder
G1 Z2.0 F3000 ;Move Z Axis up
G1 X-3 Y20 Z0.28 F5000.0 ;Move to start position
M190 S65 ; Set bed temperature and wait
M109 S205.0 ; Set hotend temperature and wait
G1 X-3 Y100.0 Z0.28 F1500.0 E15 ;Draw the first line
G1 X-2 Y100.0 Z0.28 F5000.0 ;Move to side a little
G1 X-2 Y20 Z0.28 F1500.0 E30 ;Draw the second line
G92 E0 ;Reset Extruder
G1 E-1.0000 F1800 ;Retract a bit
G1 Z2.0 F3000 ;Move Z Axis up
G1 E0.0000 F1800 

G92 E0
G92 E0
G1 F2400 E-0.8
;LAYER_COUNT:75
;LAYER:0
M107
G1 F300 Z0.4
G0 F9000 X29.984 Y76.981 Z0.4
;TYPE:SKIRT
G1 F300 Z0.2
G1 F2400 E0
G1 F1800 X30.644 Y76.734 E0.02344
G1 X32.162 Y76.535 E0.07436
G1 X60.109 Y76.499 E1.00388
G1 X62.356 Y77.168 E1.08186
G1 X64.099 Y78.198 E1.1492
G1 X64.638 Y78.729 E1.17436
G1 X66.6 Y77.557 E1.25037
G1 X68.316 Y77.275 E1.30821
G1 X96.648 Y77.2 E2.25054
G1 X98.544 Y77.666 E2.31548
G1 X100.572 Y78.719 E2.39148
G1 X102.031 Y80.28 E2.46255
G1 X103.238 Y82.303 E2.5409
G1 X103.52 Y84.021 E2.59881
G1 X103.595 Y135.853 E4.32275
G1 X103.129 Y137.749 E4.38769
G1 X102.076 Y139.777 E4.46369
G1 X100.5 Y141.251 E4.53546
G1 X98.825 Y142.248 E4.60029
G1 X98.285 Y142.478 E4.61981
G1 X96.446 Y142.753 E4.68166
G1 X94.75 Y142.774 E4.73807
G1 X94.497 Y143.676 E4.76923
G1 X93.475 Y145.6 E4.84169
G1 X90.929 Y148.089 E4.96012
G1 X89.157 Y149.222 E5.03007
G1 X85.046 Y150.335 E5.17172
G1 X82.839 Y150.171 E5.24533
G1 X79.753 Y149.268 E5.35228
G1 X77.937 Y148.289 E5.4209
G1 X75.367 Y145.719 E5.54178
G1 X74.259 Y144.009 E5.60955
G1 X73.903 Y142.8 E5.65147
G1 X68.442 Y142.8 E5.8331
G1 X66.546 Y142.334 E5.89804
G1 X64.553 Y141.3 E5.97272
G1 X64.02 Y141.861 E5.99846
G1 X61.935 Y143.034 E6.07802
G1 X61.344 Y143.256 E6.09902
G1 X59.753 Y143.465 E6.15239
G1 X31.8 Y143.501 E7.08212
G1 X29.549 Y142.831 E7.16023
G1 X27.818 Y141.81 E7.22707
G1 X26.129 Y140.138 E7.30612
G1 X25.249 Y138.136 E7.37885
G1 X24.743 Y136.48 E7.43645
G1 X24.826 Y83.513 E9.19814
G1 X25.04 Y82.132 E9.24462
G1 X26.161 Y79.951 E9.32618
G1 X27.871 Y78.153 E9.40871
G1 X29.984 Y76.981 E9.48907
G0 F9000 X30.124 Y77.356
G1 F1800 X30.741 Y77.125 E9.51099
G1 X32.214 Y76.932 E9.5604
G1 X60.052 Y76.899 E10.48629
G1 X62.196 Y77.537 E10.56069
G1 X63.851 Y78.515 E10.62463
G1 X64.618 Y79.271 E10.66045
G1 X64.851 Y79.066 E10.67077
G1 X66.738 Y77.94 E10.74386
G1 X68.381 Y77.67 E10.79924
G1 X96.602 Y77.6 E11.73788
G1 X98.401 Y78.042 E11.79949
G1 X100.327 Y79.042 E11.87167
G1 X101.707 Y80.519 E11.9389
G1 X102.855 Y82.443 E12.01342
G1 X103.125 Y84.086 E12.0688
G1 X103.195 Y135.807 E13.78905
G1 X102.753 Y137.606 E13.85066
G1 X101.753 Y139.532 E13.92284
G1 X100.261 Y140.927 E13.99078
G1 X98.62 Y141.904 E14.0543
G1 X98.177 Y142.089 E14.07027
G1 X96.387 Y142.357 E14.13047
G1 X94.446 Y142.377 E14.19503
G1 X94.123 Y143.528 E14.23479
G1 X93.153 Y145.356 E14.30362
G1 X90.677 Y147.776 E14.41877
G1 X88.994 Y148.852 E14.48521
G1 X85.008 Y149.931 E14.62256
G1 X82.91 Y149.775 E14.69253
G1 X79.906 Y148.896 E14.79663
G1 X78.179 Y147.965 E14.86189
G1 X75.681 Y145.467 E14.97939
G1 X74.626 Y143.839 E15.04391
G1 X74.203 Y142.4 E15.09379
G1 X68.488 Y142.4 E15.28388
G1 X66.689 Y141.958 E15.34549
G1 X64.824 Y140.99 E15.41538
G1 X64.547 Y140.727 E15.42808
G1 X63.771 Y141.542 E15.46551
G1 X61.739 Y142.685 E15.54305
G1 X61.246 Y142.866 E15.56052
G1 X59.752 Y143.065 E15.61065
G1 X31.857 Y143.101 E16.53844
G1 X29.713 Y142.463 E16.61284
G1 X28.062 Y141.489 E16.6766
G1 X26.465 Y139.908 E16.75134
G1 X25.632 Y138.019 E16.82001
G1 X25.143 Y136.419 E16.87565
G1 X25.221 Y83.574 E18.63329
G1 X25.425 Y82.259 E18.67755
G1 X26.491 Y80.185 E18.75511
G1 X28.12 Y78.472 E18.83373
G1 X30.124 Y77.356 E18.91002
G0 F9000 X30.264 Y77.731
G1 F1800 X30.838 Y77.516 E18.93041
G1 X32.266 Y77.329 E18.97831
G1 X59.995 Y77.299 E19.90058
G1 X62.036 Y77.906 E19.9714
G1 X63.603 Y78.832 E20.03194
G1 X64.61 Y79.826 E20.079
G1 X65.056 Y79.409 E20.09931
G1 X66.876 Y78.323 E20.1698
G1 X68.446 Y78.065 E20.22272
G1 X96.555 Y78 E21.15763
G1 X98.259 Y78.419 E21.216
G1 X100.082 Y79.365 E21.28431
G1 X101.386 Y80.761 E21.34785
G1 X102.472 Y82.581 E21.41834
G1 X102.73 Y84.151 E21.47126
G1 X102.795 Y135.76 E23.18778
G1 X102.376 Y137.464 E23.24614
G1 X101.43 Y139.287 E23.31445
G1 X100.022 Y140.603 E23.37855
G1 X98.415 Y141.56 E23.44076
G1 X98.072 Y141.7 E23.45308
G1 X96.328 Y141.961 E23.51174
G1 X94.142 Y141.98 E23.58445
G1 X93.749 Y143.38 E23.63281
G1 X92.83 Y145.112 E23.69802
G1 X90.425 Y147.463 E23.80988
G1 X88.831 Y148.482 E23.87281
G1 X84.97 Y149.527 E24.00585
G1 X82.981 Y149.379 E24.07218
G1 X80.059 Y148.524 E24.17344
G1 X78.421 Y147.641 E24.23534
G1 X75.993 Y145.213 E24.34954
G1 X74.994 Y143.671 E24.41065
G1 X74.502 Y142 E24.46859
G1 X68.535 Y142 E24.66705
G1 X66.831 Y141.581 E24.72542
G1 X65.008 Y140.635 E24.79373
G1 X64.549 Y140.144 E24.81608
G1 X63.522 Y141.223 E24.86563
G1 X61.543 Y142.336 E24.94114
G1 X61.151 Y142.475 E24.95498
G1 X59.699 Y142.668 E25.0037
G1 X31.914 Y142.701 E25.92783
G1 X29.873 Y142.094 E25.99865
G1 X28.308 Y141.17 E26.0591
G1 X26.801 Y139.679 E26.12961
G1 X26.015 Y137.902 E26.19424
G1 X25.543 Y136.358 E26.24794
G1 X25.616 Y83.635 E28.00151
G1 X25.81 Y82.386 E28.04355
G1 X26.821 Y80.419 E28.11711
G1 X28.369 Y78.791 E28.19183
G1 X30.264 Y77.731 E28.26405
G0 F9000 X30.404 Y78.106
G1 F1800 X30.935 Y77.907 E28.28291
G1 X32.318 Y77.726 E28.3293
G1 X59.938 Y77.699 E29.24794
G1 X61.876 Y78.275 E29.31519
G1 X63.355 Y79.149 E29.37233
G1 X64.602 Y80.38 E29.43061
G1 X65.298 Y79.73 E29.46228
G1 X67.014 Y78.706 E29.52875
G1 X68.511 Y78.46 E29.5792
G1 X96.509 Y78.4 E30.51042
G1 X98.116 Y78.795 E30.56546
G1 X99.837 Y79.688 E30.62995
G1 X101.065 Y81.003 E30.68979
G1 X102.089 Y82.719 E30.75626
G1 X102.335 Y84.216 E30.80672
G1 X102.395 Y135.714 E32.51955
G1 X102 Y137.321 E32.57459
G1 X101.107 Y139.042 E32.63907
G1 X99.783 Y140.279 E32.69934
G1 X98.21 Y141.216 E32.76024
G1 X97.966 Y141.311 E32.76895
G1 X96.269 Y141.565 E32.82602
G1 X93.839 Y141.582 E32.90684
G1 X93.375 Y143.232 E32.96385
G1 X92.507 Y144.868 E33.02545
G1 X90.175 Y147.148 E33.13392
G1 X88.666 Y148.113 E33.1935
G1 X84.933 Y149.123 E33.32212
G1 X83.052 Y148.983 E33.38486
G1 X80.212 Y148.152 E33.48327
G1 X78.663 Y147.317 E33.5418
G1 X76.307 Y144.961 E33.65262
G1 X75.361 Y143.501 E33.71048
G1 X74.801 Y141.6 E33.7764
G1 X68.581 Y141.6 E33.98328
G1 X66.974 Y141.205 E34.03832
G1 X65.253 Y140.312 E34.1028
G1 X64.552 Y139.561 E34.13697
G1 X63.273 Y140.904 E34.19866
G1 X61.347 Y141.987 E34.27215
G1 X61.061 Y142.083 E34.28218
G1 X59.646 Y142.271 E34.32966
G1 X31.971 Y142.301 E35.25013
G1 X30.033 Y141.725 E35.31738
G1 X28.554 Y140.851 E35.37452
G1 X27.137 Y139.45 E35.44079
G1 X26.398 Y137.785 E35.50138
G1 X25.943 Y136.297 E35.55314
G1 X26.011 Y83.696 E37.30265
G1 X26.195 Y82.513 E37.34247
G1 X27.151 Y80.653 E37.41203
G1 X28.618 Y79.111 E37.48282
G1 X30.404 Y78.106 E37.55098
G0 F9000 X30.544 Y78.481
G1 F1800 X31.032 Y78.298 E37.56831
G1 X32.37 Y78.123 E37.6132
G1 X59.881 Y78.099 E38.52822
G1 X61.714 Y78.644 E38.59182
G1 X63.108 Y79.468 E38.64568
G1 X64.383 Y80.726 E38.70525
G1 X64.532 Y80.992 E38.71539
G1 X65.54 Y80.051 E38.76126
G1 X67.152 Y79.089 E38.82369
G1 X68.576 Y78.855 E38.87169
G1 X96.463 Y78.8 E39.79922
G1 X97.973 Y79.171 E39.85094
G1 X99.592 Y80.011 E39.9116
G1 X100.744 Y81.245 E39.96775
G1 X101.706 Y82.857 E40.03019
G1 X101.94 Y84.281 E40.07818
G1 X101.995 Y135.668 E41.78732
G1 X101.624 Y137.178 E41.83904
G1 X100.784 Y138.797 E41.8997
G1 X99.544 Y139.955 E41.95613
G1 X98.005 Y140.872 E42.01572
G1 X97.861 Y140.923 E42.0208
G1 X96.266 Y141.165 E42.07446
G1 X93.535 Y141.184 E42.16529
G1 X93.001 Y143.084 E42.23093
G1 X92.184 Y144.624 E42.28892
G1 X89.925 Y146.833 E42.394
G1 X88.501 Y147.744 E42.45023
G1 X84.896 Y148.719 E42.57444
G1 X83.123 Y148.587 E42.63357
G1 X80.365 Y147.78 E42.72915
G1 X78.905 Y146.993 E42.78432
G1 X76.621 Y144.709 E42.89175
G1 X75.728 Y143.331 E42.94636
G1 X75.101 Y141.2 E43.02025
G1 X68.627 Y141.2 E43.23557
G1 X67.117 Y140.829 E43.28729
G1 X65.498 Y139.989 E43.34795
G1 X64.517 Y138.938 E43.39577
G1 X64.389 Y139.151 E43.40404
G1 X63.024 Y140.585 E43.46988
G1 X61.151 Y141.638 E43.54135
G1 X61.008 Y141.686 E43.54637
G1 X59.593 Y141.874 E43.59384
G1 X32.028 Y141.901 E44.51066
G1 X30.195 Y141.356 E44.57426
G1 X28.801 Y140.532 E44.62812
G1 X27.472 Y139.219 E44.69026
G1 X26.764 Y137.623 E44.74833
G1 X26.343 Y136.237 E44.79651
G1 X26.406 Y83.758 E46.54197
G1 X26.58 Y82.64 E46.5796
G1 X27.481 Y80.887 E46.64516
G1 X28.868 Y79.429 E46.71209
G1 X30.544 Y78.481 E46.77613
G0 F9000 X30.741 Y78.829
G1 F1800 X31.131 Y78.688 E46.78992
G1 X32.37 Y78.523 E46.8315
G1 X59.824 Y78.499 E47.74462
G1 X61.552 Y79.013 E47.80458
G1 X62.861 Y79.787 E47.85516
G1 X64.102 Y81.011 E47.91314
G1 X64.452 Y81.788 E47.94148
G1 X64.629 Y81.448 E47.95423
G1 X65.782 Y80.372 E48.00668
G1 X67.29 Y79.472 E48.06509
G1 X68.641 Y79.25 E48.11063
G1 X96.416 Y79.2 E49.03443
G1 X97.831 Y79.548 E49.0829
G1 X99.347 Y80.334 E49.1397
G1 X100.423 Y81.487 E49.19215
G1 X101.323 Y82.995 E49.25056
G1 X101.545 Y84.346 E49.2961
G1 X101.595 Y135.621 E51.00151
G1 X101.247 Y137.036 E51.04998
G1 X100.461 Y138.552 E51.10677
G1 X99.305 Y139.631 E51.15937
G1 X97.8 Y140.528 E51.21764
G1 X96.263 Y140.765 E51.26937
G1 X93.231 Y140.786 E51.37021
G1 X92.627 Y142.936 E51.44449
G1 X91.861 Y144.38 E51.49886
G1 X89.675 Y146.518 E51.60056
G1 X88.336 Y147.375 E51.65343
G1 X84.859 Y148.315 E51.77323
G1 X83.194 Y148.191 E51.82876
G1 X80.518 Y147.408 E51.9215
G1 X79.147 Y146.669 E51.9733
G1 X76.933 Y144.455 E52.07744
G1 X76.096 Y143.163 E52.12864
G1 X75.4 Y140.8 E52.21057
G1 X68.674 Y140.8 E52.43428
G1 X67.259 Y140.452 E52.48275
G1 X65.743 Y139.666 E52.53954
G1 X64.664 Y138.51 E52.59214
G1 X64.465 Y138.175 E52.6051
G1 X64.099 Y138.875 E52.63137
G1 X62.775 Y140.266 E52.69524
G1 X60.955 Y141.289 E52.76468
G1 X59.54 Y141.477 E52.81216
G1 X32.085 Y141.501 E53.72532
G1 X30.357 Y140.987 E53.78528
G1 X29.048 Y140.213 E53.83586
G1 X27.806 Y138.987 E53.8939
G1 X27.147 Y137.507 E53.94779
G1 X26.743 Y136.177 E53.99402
G1 X26.801 Y83.82 E55.73542
G1 X26.965 Y82.767 E55.77087
G1 X27.811 Y81.121 E55.83242
G1 X29.118 Y79.747 E55.89549
G1 X30.741 Y78.829 E55.95751
G0 F9000 X30.938 Y79.177
G1 F1800 X31.226 Y79.079 E55.96763
G1 X32.423 Y78.92 E56.00779
G1 X59.767 Y78.899 E56.91726
G1 X61.39 Y79.382 E56.97358
G1 X62.614 Y80.106 E57.02088
G1 X63.768 Y81.244 E57.07478
G1 X64.426 Y82.706 E57.12811
G1 X64.952 Y81.693 E57.16607
G1 X66.024 Y80.693 E57.21483
G1 X67.428 Y79.855 E57.26921
G1 X68.706 Y79.645 E57.31229
G1 X96.37 Y79.6 E58.2324
G1 X97.688 Y79.924 E58.27754
G1 X99.102 Y80.657 E58.33051
G1 X100.102 Y81.729 E58.37927
G1 X100.94 Y83.133 E58.43366
G1 X101.15 Y84.411 E58.47673
G1 X101.195 Y135.575 E60.17845
G1 X100.871 Y136.893 E60.2236
G1 X100.138 Y138.307 E60.27657
G1 X99.066 Y139.307 E60.32533
G1 X97.661 Y140.145 E60.37974
G1 X96.26 Y140.365 E60.42691
G1 X92.928 Y140.388 E60.53773
G1 X92.253 Y142.788 E60.62066
G1 X91.538 Y144.136 E60.67141
G1 X89.423 Y146.205 E60.76981
G1 X88.172 Y147.005 E60.8192
G1 X84.822 Y147.911 E60.93463
G1 X83.265 Y147.795 E60.98656
G1 X80.671 Y147.036 E61.07645
G1 X79.389 Y146.345 E61.12489
G1 X77.247 Y144.203 E61.22564
G1 X76.463 Y142.993 E61.2736
G1 X75.7 Y140.4 E61.3635
G1 X68.72 Y140.4 E61.59565
G1 X67.402 Y140.076 E61.64079
G1 X65.988 Y139.343 E61.69377
G1 X64.988 Y138.271 E61.74253
G1 X64.42 Y137.319 E61.7794
G1 X64.347 Y137.538 E61.78708
G1 X63.771 Y138.638 E61.82838
G1 X62.526 Y139.947 E61.88846
G1 X60.827 Y140.902 E61.95328
G1 X59.487 Y141.08 E61.99825
G1 X32.142 Y141.101 E62.90774
G1 X30.519 Y140.618 E62.96406
G1 X29.295 Y139.894 E63.01136
G1 X28.141 Y138.755 E63.06529
G1 X27.53 Y137.391 E63.115
G1 X27.143 Y136.117 E63.15929
G1 X27.196 Y83.882 E64.89663
G1 X27.35 Y82.894 E64.92989
G1 X28.141 Y81.355 E64.98744
G1 X29.368 Y80.065 E65.04666
G1 X30.938 Y79.177 E65.10665
G0 F9000 X31.135 Y79.525
G1 F1800 X31.279 Y79.476 E65.11171
G1 X32.476 Y79.317 E65.15187
G1 X59.71 Y79.299 E66.05768
G1 X61.228 Y79.751 E66.11036
G1 X62.367 Y80.425 E66.15438
G1 X63.434 Y81.477 E66.20421
G1 X63.996 Y82.725 E66.24974
G1 X64.349 Y83.886 E66.2901
G1 X64.366 Y84.182 E66.29996
G1 X64.595 Y83.25 E66.33188
G1 X65.274 Y81.94 E66.38095
G1 X66.269 Y81.012 E66.42621
G1 X67.566 Y80.238 E66.47644
G1 X68.771 Y80.04 E66.51706
G1 X96.324 Y80 E67.43348
G1 X97.545 Y80.3 E67.4753
G1 X98.855 Y80.979 E67.52437
G1 X99.783 Y81.974 E67.56962
G1 X100.557 Y83.271 E67.61986
G1 X100.755 Y84.476 E67.66048
G1 X100.795 Y135.529 E69.35851
G1 X100.495 Y136.75 E69.40033
G1 X99.816 Y138.06 E69.4494
G1 X98.821 Y138.988 E69.49465
G1 X97.524 Y139.762 E69.54489
G1 X96.257 Y139.965 E69.58757
G1 X92.625 Y139.99 E69.70837
G1 X91.88 Y142.638 E69.79986
G1 X91.214 Y143.893 E69.84712
G1 X89.173 Y145.89 E69.94209
G1 X88.007 Y146.636 E69.98813
G1 X84.785 Y147.507 E70.09914
G1 X83.336 Y147.399 E70.14747
G1 X80.824 Y146.664 E70.23452
G1 X79.631 Y146.021 E70.2796
G1 X77.561 Y143.951 E70.37696
G1 X76.83 Y142.823 E70.42167
G1 X76.052 Y140.178 E70.51337
G1 X76.031 Y140 E70.51933
G1 X68.766 Y140 E70.76097
G1 X67.545 Y139.7 E70.80279
G1 X66.235 Y139.021 E70.85186
G1 X65.307 Y138.026 E70.89712
G1 X64.533 Y136.729 E70.94735
G1 X64.368 Y135.724 E70.98122
G1 X64.368 Y136.062 E70.99247
G1 X63.993 Y137.353 E71.03718
G1 X63.445 Y138.4 E71.07649
G1 X62.277 Y139.628 E71.13285
G1 X60.699 Y140.515 E71.19306
G1 X59.434 Y140.683 E71.2355
G1 X32.199 Y140.701 E72.14134
G1 X30.681 Y140.249 E72.19402
G1 X29.542 Y139.575 E72.23804
G1 X28.475 Y138.523 E72.28788
G1 X27.913 Y137.275 E72.3334
G1 X27.543 Y136.057 E72.37574
G1 X27.591 Y83.944 E74.10903
G1 X27.735 Y83.021 E74.1401
G1 X28.471 Y81.589 E74.19365
G1 X29.618 Y80.383 E74.24901
G1 X31.135 Y79.525 E74.30697
G0 F9000 X31.332 Y79.873
G1 F1800 X32.529 Y79.714 E74.34713
G1 X59.653 Y79.699 E75.24928
G1 X61.065 Y80.12 E75.29829
G1 X62.12 Y80.744 E75.33906
G1 X63.101 Y81.711 E75.38487
G1 X63.613 Y82.841 E75.42613
G1 X63.966 Y84.002 E75.46649
G1 X63.968 Y136.005 E77.19612
G1 X63.62 Y137.203 E77.23761
G1 X63.117 Y138.163 E77.27366
G1 X62.028 Y139.309 E77.32624
G1 X60.571 Y140.128 E77.38183
G1 X59.381 Y140.286 E77.42176
G1 X32.256 Y140.301 E78.32394
G1 X30.844 Y139.88 E78.37295
G1 X29.789 Y139.256 E78.41372
G1 X28.808 Y138.289 E78.45953
G1 X28.296 Y137.159 E78.50079
G1 X27.943 Y135.997 E78.54119
G1 X27.986 Y84.006 E80.27041
G1 X28.12 Y83.148 E80.2993
G1 X28.801 Y81.823 E80.34885
G1 X29.868 Y80.701 E80.40034
G1 X31.332 Y79.873 E80.45629
G1 F2400 E79.65629
G1 F300 Z0.4
G0 F9000 X64.695 Y84.517 Z0.4
G1 F300 Z0.2
G1 F2400 E80.45629
G1 F1800 X64.971 Y83.393 E80.49478
G1 X65.596 Y82.187 E80.53996
G1 X66.511 Y81.334 E80.58156
G1 X67.706 Y80.621 E80.62785
G1 X68.836 Y80.435 E80.66594
G1 X96.278 Y80.4 E81.57866
G1 X97.402 Y80.676 E81.61716
G1 X98.608 Y81.301 E81.66234
G1 X99.461 Y82.216 E81.70394
G1 X100.174 Y83.411 E81.75023
G1 X100.36 Y84.541 E81.78831
G1 X100.395 Y135.483 E83.48265
G1 X100.119 Y136.607 E83.52115
G1 X99.494 Y137.813 E83.56633
G1 X98.579 Y138.666 E83.60793
G1 X97.384 Y139.379 E83.65422
G1 X96.254 Y139.565 E83.69231
G1 X92.292 Y139.592 E83.82408
G1 X92.279 Y139.744 E83.82916
G1 X91.506 Y142.49 E83.92404
G1 X90.891 Y143.649 E83.96768
G1 X88.923 Y145.575 E84.05927
G1 X87.842 Y146.267 E84.10196
G1 X84.748 Y147.103 E84.20855
G1 X83.407 Y147.003 E84.25328
G1 X80.977 Y146.292 E84.33749
G1 X79.873 Y145.697 E84.3792
G1 X77.873 Y143.697 E84.47328
G1 X77.198 Y142.655 E84.51457
G1 X76.436 Y140.065 E84.60436
G1 X76.404 Y139.6 E84.61987
G1 X68.812 Y139.6 E84.87238
G1 X67.688 Y139.324 E84.91087
G1 X66.482 Y138.699 E84.95605
G1 X65.629 Y137.784 E84.99766
G1 X64.916 Y136.589 E85.04394
G1 X64.73 Y135.459 E85.08203
G1 X64.695 Y84.517 E86.77637
G0 F9000 X65.095 Y84.564
G1 F1800 X65.348 Y83.535 E86.81161
G1 X65.918 Y82.434 E86.85285
