;FLAVOR:Marlin
;TIME:13207
;Filament used: 17.7747m
;Layer height: 0.2
;MINX:38.703
;MINY:13.3
;MINZ:0.2
;MAXX:181.297
;MAXY:206.7
;MAXZ:10.6
;TARGET_MACHINE.NAME:Creality Ender-3 V3 SE
;Generated with Cura_SteamEngine 5.8.1
M82 ;absolute extrusion mode
M220 S100 ;Reset Feedrate
M221 S100 ;Reset Flowrate

G28 ;Home

M420 S1; Use saved mesh leveling data

G92 E0 ;Reset Extruder
G1 Z2.0 F3000 ;Move Z Axis up
G1 X-3 Y20 Z0.28 F5000.0 ;Move to start position
M190 S65 ; Set bed temperature and wait
M109 S205.0 ; Set hotend temperature and wait
G1 X-3 Y100.0 Z0.28 F1500.0 E15 ;Draw the first line
G1 X-2 Y100.0 Z0.28 F5000.0 ;Move to side a little
G1 X-2 Y20 Z0.28 F1500.0 E30 ;Draw the second line
G92 E0 ;Reset Extruder
G1 E-1.0000 F1800 ;Retract a bit
G1 Z2.0 F3000 ;Move Z Axis up
G1 E0.0000 F1800 

G92 E0
G92 E0
G1 F2400 E-0.8
;LAYER_COUNT:52
;LAYER:0
M107
G1 F300 Z0.4
G0 F9000 X40.102 Y18.66 Z0.4
;TYPE:SKIRT
G1 F300 Z0.2
G1 F2400 E0
G1 F1800 X41.81 Y16.431 E0.0934
G1 X44.078 Y14.693 E0.18844
G1 X46.709 Y13.6 E0.28319
G1 X48.626 Y13.351 E0.34749
G1 X170.498 Y13.3 E4.40097
G1 X173.26 Y13.584 E4.49332
G1 X175.944 Y14.697 E4.58996
G1 X178.203 Y16.433 E4.68472
G1 X179.921 Y18.681 E4.77882
G1 X181.018 Y21.335 E4.87434
G1 X181.297 Y24.047 E4.96501
G1 X181.222 Y196.969 E10.71642
G1 X180.973 Y198.752 E10.7763
G1 X179.897 Y201.343 E10.86961
G1 X178.194 Y203.565 E10.96273
G1 X175.91 Y205.317 E11.05847
G1 X173.267 Y206.416 E11.15367
G1 X170.498 Y206.7 E11.24625
G1 X48.431 Y206.622 E15.30622
G1 X46.646 Y206.373 E15.36616
G1 X44.076 Y205.305 E15.45873
G1 X41.79 Y203.551 E15.55456
G1 X40.078 Y201.316 E15.6482
G1 X38.982 Y198.665 E15.74361
G1 X38.703 Y195.953 E15.83429
G1 X38.778 Y23.031 E21.5857
G1 X39.027 Y21.248 E21.64558
G1 X40.102 Y18.66 E21.73879
G0 F9000 X40.451 Y18.861
G1 F1800 X42.095 Y16.716 E21.82867
G1 X44.279 Y15.042 E21.9202
G1 X46.81 Y13.991 E22.01135
G1 X48.678 Y13.748 E22.074
G1 X170.498 Y13.7 E26.12575
G1 X173.163 Y13.976 E26.21486
G1 X175.74 Y15.045 E26.30766
G1 X177.917 Y16.718 E26.39898
G1 X179.571 Y18.882 E26.48957
G1 X180.626 Y21.435 E26.58144
G1 X180.897 Y24.047 E26.66879
G1 X180.826 Y196.914 E32.41837
G1 X180.584 Y198.647 E32.47657
G1 X179.549 Y201.139 E32.56631
G1 X177.907 Y203.282 E32.65611
G1 X175.71 Y204.967 E32.7482
G1 X173.169 Y206.024 E32.83973
G1 X170.498 Y206.3 E32.92904
G1 X48.486 Y206.226 E36.98718
G1 X46.752 Y205.984 E37.04541
G1 X44.276 Y204.955 E37.13459
G1 X42.077 Y203.268 E37.22677
G1 X40.428 Y201.115 E37.31697
G1 X39.374 Y198.565 E37.40875
G1 X39.103 Y195.953 E37.49609
G1 X39.174 Y23.086 E43.24567
G1 X39.416 Y21.353 E43.30387
G1 X40.451 Y18.861 E43.39362
G0 F9000 X40.799 Y19.065
G1 F1800 X42.382 Y16.999 E43.48018
G1 X44.48 Y15.391 E43.5681
G1 X46.911 Y14.381 E43.65566
G1 X48.729 Y14.145 E43.71663
G1 X170.498 Y14.1 E47.76669
G1 X173.066 Y14.368 E47.85256
G1 X175.536 Y15.393 E47.94151
G1 X177.631 Y17.003 E48.02939
G1 X179.221 Y19.083 E48.11646
G1 X180.234 Y21.535 E48.2047
G1 X180.497 Y24.047 E48.28871
G1 X180.43 Y196.859 E54.03646
G1 X180.195 Y198.542 E54.09298
G1 X179.2 Y200.938 E54.17927
G1 X177.622 Y202.997 E54.26555
G1 X175.51 Y204.617 E54.35408
G1 X173.07 Y205.632 E54.44198
G1 X170.498 Y205.9 E54.52799
G1 X48.541 Y205.83 E58.58429
G1 X46.857 Y205.595 E58.64085
G1 X44.477 Y204.606 E58.72657
G1 X42.364 Y202.985 E58.81515
G1 X40.778 Y200.914 E58.90191
G1 X39.766 Y198.465 E58.99004
G1 X39.503 Y195.953 E59.07405
G1 X39.57 Y23.141 E64.8218
G1 X39.805 Y21.458 E64.87832
G1 X40.799 Y19.065 E64.9645
G0 F9000 X41.148 Y19.266
G1 F1800 X42.667 Y17.284 E65.04756
G1 X44.68 Y15.741 E65.13192
G1 X47.014 Y14.771 E65.21598
G1 X48.78 Y14.542 E65.27521
G1 X170.498 Y14.5 E69.32357
G1 X172.969 Y14.76 E69.40621
G1 X175.332 Y15.741 E69.49131
G1 X177.345 Y17.288 E69.57575
G1 X178.871 Y19.284 E69.65931
G1 X179.842 Y21.635 E69.74391
G1 X180.097 Y24.047 E69.82458
G1 X180.034 Y196.804 E75.57051
G1 X179.806 Y198.437 E75.62535
G1 X178.852 Y200.734 E75.70807
G1 X177.335 Y202.714 E75.79103
G1 X175.31 Y204.267 E75.87591
G1 X172.972 Y205.24 E75.96014
G1 X170.498 Y205.5 E76.04288
G1 X48.596 Y205.434 E80.09736
G1 X46.962 Y205.206 E80.15223
G1 X44.678 Y204.257 E80.23449
G1 X42.651 Y202.702 E80.31946
G1 X41.128 Y200.713 E80.40278
G1 X40.158 Y198.365 E80.48728
G1 X39.903 Y195.953 E80.56795
G1 X39.966 Y23.196 E86.31387
G1 X40.194 Y21.563 E86.36871
G1 X41.148 Y19.266 E86.45144
G0 F9000 X41.497 Y19.467
G1 F1800 X42.952 Y17.569 E86.53098
G1 X44.881 Y16.09 E86.61183
G1 X47.115 Y15.162 E86.69229
G1 X48.832 Y14.939 E86.74987
G1 X170.498 Y14.9 E90.7965
G1 X172.872 Y15.152 E90.8759
G1 X175.128 Y16.089 E90.95715
G1 X177.059 Y17.573 E91.03816
G1 X178.521 Y19.485 E91.11821
G1 X179.45 Y21.735 E91.19917
G1 X179.697 Y24.047 E91.27651
G1 X179.638 Y196.749 E97.0206
G1 X179.417 Y198.332 E97.07376
G1 X178.503 Y200.533 E97.15303
G1 X177.05 Y202.429 E97.23248
G1 X175.11 Y203.917 E97.3138
G1 X172.873 Y204.848 E97.39439
G1 X170.498 Y205.1 E97.47382
G1 X48.651 Y205.038 E101.52647
G1 X47.067 Y204.817 E101.57966
G1 X44.882 Y203.909 E101.65836
G1 X42.935 Y202.415 E101.73999
G1 X41.479 Y200.515 E101.8196
G1 X40.55 Y198.265 E101.90057
G1 X40.303 Y195.953 E101.9779
G1 X40.362 Y23.251 E107.72199
G1 X40.583 Y21.668 E107.77516
G1 X41.497 Y19.467 E107.85442
G0 F9000 X41.845 Y19.671
G1 F1800 X43.237 Y17.854 E107.93055
G1 X45.085 Y16.438 E108.00799
G1 X47.216 Y15.553 E108.08473
G1 X48.884 Y15.336 E108.14068
G1 X170.498 Y15.3 E112.18558
G1 X172.774 Y15.544 E112.26171
G1 X174.925 Y16.438 E112.33919
G1 X176.773 Y17.858 E112.4167
G1 X178.171 Y19.686 E112.49324
G1 X179.058 Y21.835 E112.57057
G1 X179.297 Y24.047 E112.64457
G1 X179.242 Y196.694 E118.38683
G1 X179.028 Y198.227 E118.43831
G1 X178.155 Y200.329 E118.51401
G1 X176.763 Y202.146 E118.59014
G1 X174.91 Y203.567 E118.66781
G1 X172.775 Y204.456 E118.74473
G1 X170.498 Y204.7 E118.8209
G1 X48.706 Y204.642 E122.87172
G1 X47.173 Y204.428 E122.9232
G1 X45.082 Y203.559 E122.99851
G1 X43.222 Y202.132 E123.07649
G1 X41.829 Y200.314 E123.15266
G1 X40.942 Y198.165 E123.22999
G1 X40.703 Y195.953 E123.30399
G1 X40.758 Y23.306 E129.04625
G1 X40.972 Y21.773 E129.09773
G1 X41.845 Y19.671 E129.17344
G0 F9000 X42.194 Y19.872
G1 F1800 X43.522 Y18.139 E129.24605
G1 X45.286 Y16.787 E129.31997
G1 X47.317 Y15.943 E129.39313
G1 X48.935 Y15.733 E129.44739
G1 X170.498 Y15.7 E133.49059
G1 X172.675 Y15.936 E133.56343
G1 X174.722 Y16.787 E133.63716
G1 X176.487 Y18.143 E133.71119
G1 X177.821 Y19.887 E133.78422
G1 X178.666 Y21.935 E133.8579
G1 X178.897 Y24.047 E133.92857
G1 X178.846 Y196.639 E139.669
G1 X178.639 Y198.122 E139.7188
G1 X177.806 Y200.128 E139.79105
G1 X176.478 Y201.861 E139.86366
G1 X174.71 Y203.217 E139.93777
G1 X172.676 Y204.064 E140.01105
G1 X170.498 Y204.3 E140.08392
G1 X48.761 Y204.246 E144.13291
G1 X47.278 Y204.039 E144.18271
G1 X45.283 Y203.21 E144.25457
G1 X43.509 Y201.849 E144.32893
G1 X42.179 Y200.113 E144.40167
G1 X41.334 Y198.065 E144.47536
G1 X41.103 Y195.953 E144.54602
G1 X41.154 Y23.361 E150.28646
G1 X41.361 Y21.878 E150.33626
G1 X42.194 Y19.872 E150.4085
G0 F9000 X42.543 Y20.073
G1 F1800 X43.807 Y18.424 E150.47761
G1 X45.486 Y17.137 E150.54797
G1 X47.42 Y16.333 E150.61763
G1 X48.986 Y16.13 E150.67015
G1 X170.498 Y16.1 E154.71166
G1 X172.577 Y16.328 E154.78122
G1 X174.519 Y17.136 E154.85118
G1 X176.201 Y18.428 E154.92172
G1 X177.472 Y20.089 E154.99129
G1 X178.274 Y22.034 E155.06126
G1 X178.497 Y24.047 E155.12862
G1 X178.45 Y196.584 E160.86723
G1 X178.25 Y198.017 E160.91535
G1 X177.457 Y199.927 E160.98414
G1 X176.193 Y201.576 E161.05324
G1 X174.51 Y202.867 E161.12379
G1 X172.577 Y203.672 E161.19343
G1 X170.498 Y203.9 E161.263
G1 X48.816 Y203.85 E165.31016
G1 X47.384 Y203.65 E165.35825
G1 X45.483 Y202.86 E165.42672
G1 X43.796 Y201.566 E165.49743
G1 X42.528 Y199.911 E165.56678
G1 X41.726 Y197.966 E165.63675
G1 X41.503 Y195.953 E165.70411
G1 X41.55 Y23.416 E171.44272
G1 X41.75 Y21.983 E171.49084
G1 X42.543 Y20.073 E171.55963
G0 F9000 X42.891 Y20.277
G1 F1800 X44.094 Y18.707 E171.62541
G1 X45.687 Y17.486 E171.69217
G1 X47.521 Y16.724 E171.75822
G1 X49.038 Y16.527 E171.8091
G1 X170.498 Y16.5 E175.84888
G1 X172.478 Y16.72 E175.91514
G1 X174.316 Y17.485 E175.98135
G1 X175.915 Y18.713 E176.04841
G1 X177.123 Y20.291 E176.11451
G1 X177.882 Y22.132 E176.18074
G1 X178.097 Y24.047 E176.24483
G1 X178.054 Y196.529 E181.98161
G1 X177.861 Y197.912 E182.02805
G1 X177.109 Y199.723 E182.09327
G1 X175.906 Y201.293 E182.15906
G1 X174.31 Y202.517 E182.22596
G1 X172.478 Y203.28 E182.29196
G1 X170.498 Y203.5 E182.35822
G1 X48.871 Y203.454 E186.40355
G1 X47.49 Y203.261 E186.44993
G1 X45.683 Y202.51 E186.51502
G1 X44.083 Y201.283 E186.58208
G1 X42.877 Y199.709 E186.64803
G1 X42.118 Y197.868 E186.71426
G1 X41.903 Y195.953 E186.77836
G1 X41.946 Y23.471 E192.51513
G1 X42.139 Y22.088 E192.56158
G1 X42.891 Y20.277 E192.6268
G0 F9000 X43.24 Y20.478
G1 F1800 X44.379 Y18.992 E192.68907
G1 X45.888 Y17.835 E192.75231
G1 X47.622 Y17.115 E192.81476
G1 X49.09 Y16.924 E192.864
G1 X170.498 Y16.9 E196.90204
G1 X172.376 Y17.111 E196.9649
G1 X174.113 Y17.834 E197.02748
G1 X175.629 Y18.998 E197.09105
G1 X176.773 Y20.492 E197.15363
G1 X177.492 Y22.235 E197.21635
G1 X177.697 Y24.047 E197.277
G1 X177.658 Y196.474 E203.01194
G1 X177.472 Y197.807 E203.05671
G1 X176.76 Y199.522 E203.11847
G1 X175.621 Y201.008 E203.18074
G1 X174.11 Y202.167 E203.24408
G1 X172.376 Y202.889 E203.30655
G1 X170.498 Y203.1 E203.36941
G1 X48.926 Y203.058 E207.41291
G1 X47.595 Y202.872 E207.45761
G1 X45.884 Y202.161 E207.51924
G1 X44.37 Y201 E207.58269
G1 X43.227 Y199.508 E207.6452
G1 X42.508 Y197.765 E207.70792
G1 X42.303 Y195.953 E207.76857
G1 X42.342 Y23.526 E213.50351
G1 X42.528 Y22.193 E213.54828
G1 X43.24 Y20.478 E213.61004
G0 F9000 X43.588 Y20.682
G1 F1800 X44.666 Y19.275 E213.66899
G1 X46.089 Y18.184 E213.72863
G1 X47.723 Y17.505 E213.78748
G1 X49.141 Y17.321 E213.83504
G1 X170.498 Y17.3 E217.87139
G1 X172.274 Y17.502 E217.93084
G1 X173.91 Y18.183 E217.98978
G1 X175.343 Y19.283 E218.04987
G1 X176.423 Y20.693 E218.10894
G1 X177.102 Y22.339 E218.16816
G1 X177.297 Y24.047 E218.22534
G1 X177.262 Y196.419 E223.95846
G1 X177.083 Y197.702 E224.00154
G1 X176.412 Y199.318 E224.05974
G1 X175.334 Y200.725 E224.11869
G1 X173.91 Y201.817 E224.17838
G1 X172.274 Y202.498 E224.23732
G1 X170.498 Y202.7 E224.29677
G1 X48.981 Y202.662 E228.33844
G1 X47.7 Y202.483 E228.38146
G1 X46.085 Y201.812 E228.43963
G1 X44.657 Y200.717 E228.49948
G1 X43.577 Y199.307 E228.55855
G1 X42.898 Y197.661 E228.61777
G1 X42.703 Y195.953 E228.67495
G1 X42.738 Y23.581 E234.40807
G1 X42.917 Y22.298 E234.45115
G1 X43.588 Y20.682 E234.50935
G0 F9000 X43.937 Y20.883
G1 F1800 X44.951 Y19.56 E234.56479
G1 X46.289 Y18.534 E234.62087
G1 X47.826 Y17.895 E234.67623
G1 X49.192 Y17.718 E234.72205
G1 X170.498 Y17.7 E238.7567
G1 X172.172 Y17.893 E238.81275
G1 X173.707 Y18.532 E238.86805
G1 X175.057 Y19.568 E238.92465
G1 X176.073 Y20.894 E238.98021
G1 X176.712 Y22.442 E239.03591
G1 X176.897 Y24.047 E239.08965
G1 X176.866 Y196.364 E244.82093
G1 X176.694 Y197.597 E244.86234
G1 X176.063 Y199.117 E244.91708
G1 X175.049 Y200.44 E244.97252
G1 X173.71 Y201.467 E245.02865
G1 X172.172 Y202.107 E245.08405
G1 X170.498 Y202.3 E245.1401
G1 X49.036 Y202.266 E249.17994
G1 X47.805 Y202.094 E249.22128
G1 X46.286 Y201.463 E249.27599
G1 X44.944 Y200.434 E249.33224
G1 X43.927 Y199.106 E249.38787
G1 X43.288 Y197.558 E249.44357
G1 X43.103 Y195.953 E249.49731
G1 X43.134 Y23.636 E255.22859
G1 X43.306 Y22.403 E255.27
G1 X43.937 Y20.883 E255.32474
G0 F9000 X44.286 Y21.084
G1 F1800 X45.236 Y19.845 E255.37667
G1 X46.49 Y18.883 E255.42923
G1 X47.927 Y18.286 E255.48099
G1 X49.244 Y18.115 E255.52516
G1 X170.498 Y18.1 E259.55809
G1 X172.07 Y18.284 E259.61073
G1 X173.507 Y18.882 E259.6625
G1 X174.77 Y19.851 E259.71544
G1 X175.723 Y21.095 E259.76756
G1 X176.322 Y22.546 E259.81977
G1 X176.497 Y24.047 E259.87004
G1 X176.47 Y196.309 E265.59949
G1 X176.305 Y197.492 E265.63922
G1 X175.714 Y198.916 E265.6905
G1 X174.764 Y200.155 E265.74243
G1 X173.51 Y201.117 E265.795
G1 X172.07 Y201.716 E265.84687
G1 X170.498 Y201.9 E265.89951
G1 X49.091 Y201.87 E269.93753
G1 X47.91 Y201.705 E269.97719
G1 X46.487 Y201.114 E270.02844
G1 X45.231 Y200.151 E270.08108
G1 X44.277 Y198.905 E270.13327
G1 X43.678 Y197.454 E270.18548
G1 X43.503 Y195.953 E270.23574
G1 X43.53 Y23.691 E275.9652
G1 X43.695 Y22.508 E276.00493
G1 X44.286 Y21.084 E276.05621
G0 F9000 X44.634 Y21.288
G1 F1800 X45.521 Y20.13 E276.10472
G1 X46.693 Y19.232 E276.15383
G1 X48.03 Y18.676 E276.20199
G1 X49.295 Y18.512 E276.24442
G1 X170.498 Y18.5 E280.27565
G1 X171.968 Y18.675 E280.32488
G1 X173.307 Y19.232 E280.37312
G1 X174.483 Y20.134 E280.42241
G1 X175.374 Y21.297 E280.47114
G1 X175.931 Y22.648 E280.51975
G1 X176.097 Y24.047 E280.5666
G1 X176.074 Y196.254 E286.29423
G1 X175.916 Y197.387 E286.33228
G1 X175.366 Y198.712 E286.37999
G1 X174.479 Y199.87 E286.42851
G1 X173.307 Y200.768 E286.47762
G1 X171.968 Y201.325 E286.52585
G1 X170.498 Y201.5 E286.57509
G1 X49.146 Y201.474 E290.61128
G1 X48.015 Y201.316 E290.64926
G1 X46.688 Y200.765 E290.69705
G1 X45.518 Y199.868 E290.74608
G1 X44.626 Y198.703 E290.79488
G1 X44.069 Y197.352 E290.84349
G1 X43.903 Y195.953 E290.89034
G1 X43.926 Y23.746 E296.61797
G1 X44.084 Y22.613 E296.65602
G1 X44.634 Y21.288 E296.70374
G0 F9000 X44.983 Y21.489
G1 F1800 X45.806 Y20.415 E296.74874
G1 X46.894 Y19.581 E296.79434
G1 X48.131 Y19.067 E296.83889
G1 X49.347 Y18.909 E296.87967
G1 X170.498 Y18.9 E300.90917
G1 X171.866 Y19.066 E300.95501
G1 X173.107 Y19.582 E300.99971
G1 X174.196 Y20.417 E301.04535
G1 X175.024 Y21.498 E301.09064
G1 X175.541 Y22.751 E301.13572
G1 X175.697 Y24.047 E301.17914
G1 X175.678 Y196.199 E306.90494
G1 X175.527 Y197.282 E306.94131
G1 X175.017 Y198.511 E306.98556
G1 X174.194 Y199.585 E307.03057
G1 X173.107 Y200.418 E307.07611
G1 X171.866 Y200.934 E307.12082
G1 X170.498 Y201.1 E307.16665
G1 X49.201 Y201.078 E311.201
G1 X48.12 Y200.927 E311.23731
G1 X46.889 Y200.416 E311.28164
G1 X45.805 Y199.585 E311.32707
G1 X44.976 Y198.502 E311.37243
G1 X44.459 Y197.249 E311.41751
G1 X44.303 Y195.953 E311.46093
G1 X44.322 Y23.801 E317.18673
G1 X44.473 Y22.718 E317.2231
G1 X44.983 Y21.489 E317.26735
G0 F9000 X45.332 Y21.69
G1 F1800 X46.091 Y20.7 E317.30885
G1 X47.094 Y19.931 E317.35088
G1 X48.234 Y19.457 E317.39195
G1 X49.398 Y19.306 E317.43098
G1 X170.498 Y19.3 E321.45879
G1 X171.765 Y19.457 E321.50125
G1 X172.906 Y19.931 E321.54234
G1 X173.909 Y20.7 E321.58438
G1 X174.674 Y21.699 E321.62623
G1 X175.151 Y22.854 E321.66779
G1 X175.297 Y24.047 E321.70777
G1 X175.282 Y196.144 E327.43174
G1 X175.138 Y197.177 E327.46643
G1 X174.668 Y198.31 E327.50723
G1 X173.909 Y199.3 E327.54872
G1 X172.906 Y200.069 E327.59075
G1 X171.765 Y200.543 E327.63185
G1 X170.498 Y200.7 E327.67431
G1 X49.256 Y200.682 E331.70684
G1 X48.225 Y200.538 E331.74146
G1 X47.09 Y200.067 E331.78233
G1 X46.092 Y199.302 E331.82415
G1 X45.326 Y198.301 E331.86608
G1 X44.849 Y197.146 E331.90764
G1 X44.703 Y195.953 E331.94762
G1 X44.718 Y23.856 E337.67158
G1 X44.862 Y22.823 E337.70627
G1 X45.332 Y21.69 E337.74707
G0 F9000 X45.68 Y21.894
G1 F1800 X46.378 Y20.983 E337.78524
G1 X47.295 Y20.28 E337.82367
G1 X48.335 Y19.848 E337.86113
G1 X49.45 Y19.703 E337.89853
G1 X170.498 Y19.7 E341.9246
G1 X171.664 Y19.848 E341.96369
G1 X172.705 Y20.28 E342.00118
G1 X173.622 Y20.983 E342.03961
G1 X174.324 Y21.9 E342.07802
G1 X174.761 Y22.957 E342.11606
G1 X174.897 Y24.047 E342.1526
G1 X174.886 Y196.089 E347.87474
G1 X174.749 Y197.072 E347.90775
G1 X174.32 Y198.106 E347.94498
G1 X173.622 Y199.017 E347.98315
G1 X172.705 Y199.72 E348.02158
G1 X171.664 Y200.152 E348.05907
G1 X170.498 Y200.3 E348.09816
G1 X49.311 Y200.286 E352.12886
G1 X48.33 Y200.149 E352.1618
G1 X47.291 Y199.718 E352.19922
G1 X46.379 Y199.019 E352.23744
G1 X45.676 Y198.1 E352.27592
G1 X45.239 Y197.043 E352.31396
G1 X45.103 Y195.953 E352.3505
G1 X45.114 Y23.911 E358.07264
G1 X45.251 Y22.928 E358.10565
G1 X45.68 Y21.894 E358.14288
G0 F9000 X46.028 Y22.098
G1 F1800 X46.665 Y21.266 E358.17773
G1 X47.496 Y20.629 E358.21256
G1 X48.436 Y20.239 E358.24641
G1 X49.502 Y20.1 E358.28216
