;FLAVOR:Marlin
;TIME:6670
;Filament used: 6.84817m
;Layer height: 0.2
;MINX:10.474
;MINY:41.311
;MINZ:0.2
;MAXX:82.346
;MAXY:140.299
;MAXZ:25.2
;TARGET_MACHINE.NAME:Creality Ender-3 V3 SE
;Generated with Cura_SteamEngine 5.8.1
M82 ;absolute extrusion mode
M220 S100 ;Reset Feedrate
M221 S100 ;Reset Flowrate

G28 ;Home

M420 S1; Use saved mesh leveling data

G92 E0 ;Reset Extruder
G1 Z2.0 F3000 ;Move Z Axis up
G1 X-3 Y20 Z0.28 F5000.0 ;Move to start position
M190 S65 ; Set bed temperature and wait
M109 S205.0 ; Set hotend temperature and wait
G1 X-3 Y100.0 Z0.28 F1500.0 E15 ;Draw the first line
G1 X-2 Y100.0 Z0.28 F5000.0 ;Move to side a little
G1 X-2 Y20 Z0.28 F1500.0 E30 ;Draw the second line
G92 E0 ;Reset Extruder
G1 E-1.0000 F1800 ;Retract a bit
G1 Z2.0 F3000 ;Move Z Axis up
G1 E0.0000 F1800 

G92 E0
G92 E0
G1 F2400 E-0.8
;LAYER_COUNT:125
;LAYER:0
M107
G1 F300 Z0.4
G0 F9000 X21.807 Y42.39 Z0.4
;TYPE:SKIRT
G1 F300 Z0.2
G1 F2400 E0
G1 F1800 X25.097 Y41.473 E0.1136
G1 X27.303 Y41.311 E0.18717
G1 X29.143 Y41.83 E0.25075
G1 X30.418 Y41.473 E0.29479
G1 X32.624 Y41.311 E0.36836
G1 X34.469 Y41.831 E0.43212
G1 X35.749 Y41.473 E0.47632
G1 X37.966 Y41.311 E0.55026
G1 X39.806 Y41.83 E0.61384
G1 X41.081 Y41.473 E0.65788
G1 X43.287 Y41.311 E0.73145
G1 X45.132 Y41.831 E0.79521
G1 X46.412 Y41.473 E0.83941
G1 X48.619 Y41.311 E0.91302
G1 X50.464 Y41.831 E0.97677
G1 X51.744 Y41.473 E1.02098
G1 X53.961 Y41.311 E1.09491
G1 X55.801 Y41.83 E1.1585
G1 X57.076 Y41.473 E1.20254
G1 X59.282 Y41.311 E1.27611
G1 X61.127 Y41.831 E1.33986
G1 X62.407 Y41.473 E1.38407
G1 X64.62 Y41.311 E1.45787
G1 X67.899 Y42.235 E1.57118
G1 X69.883 Y43.245 E1.64522
G1 X71.966 Y45.451 E1.74614
G1 X74.542 Y46.173 E1.83512
G1 X76.488 Y47.174 E1.9079
G1 X78.839 Y49.644 E2.02132
G1 X79.871 Y51.292 E2.08599
G1 X80.745 Y54.303 E2.19027
G1 X80.928 Y56.518 E2.26419
G1 X80.392 Y58.417 E2.32982
G1 X80.745 Y59.626 E2.37171
G1 X80.928 Y61.853 E2.44603
G1 X80.392 Y63.75 E2.5116
G1 X80.745 Y64.961 E2.55355
G1 X80.928 Y67.184 E2.62774
G1 X80.392 Y69.079 E2.69324
G1 X80.745 Y70.289 E2.73516
G1 X80.928 Y72.515 E2.80945
G1 X80.025 Y75.698 E2.91949
G1 X80.745 Y78.174 E3.00526
G1 X80.928 Y80.393 E3.07931
G1 X80.148 Y83.162 E3.17499
G1 X81.077 Y84.364 E3.22552
G1 X82.097 Y86.753 E3.31192
G1 X82.346 Y89.255 E3.39555
G1 X82.268 Y131.879 E4.81323
G1 X82.052 Y133.364 E4.86314
G1 X81.111 Y135.56 E4.9426
G1 X79.576 Y137.563 E5.02654
G1 X77.641 Y139.046 E5.10762
G1 X75.293 Y140.05 E5.19256
G1 X72.797 Y140.299 E5.27599
G1 X23.421 Y140.222 E6.91824
G1 X21.933 Y140.005 E6.96825
G1 X19.733 Y139.063 E7.04785
G1 X17.737 Y137.533 E7.1315
G1 X16.247 Y135.589 E7.21296
G1 X15.246 Y133.248 E7.29765
G1 X14.996 Y130.751 E7.38111
G1 X15.039 Y90.658 E8.71461
G1 X12.725 Y88.345 E8.82343
G1 X11.585 Y86.574 E8.89348
G1 X10.709 Y83.606 E8.99641
G1 X10.546 Y81.265 E9.07446
G1 X11.357 Y78.469 E9.17129
G1 X10.637 Y76.012 E9.25644
G1 X10.474 Y73.691 E9.33383
G1 X11.427 Y70.405 E9.44763
G1 X12.056 Y69.201 E9.49281
G1 X11.522 Y68.37 E9.52566
G1 X10.637 Y65.35 E9.63033
G1 X10.474 Y63.026 E9.70782
G1 X11.354 Y59.994 E9.81282
G1 X10.637 Y57.541 E9.89783
G1 X10.474 Y55.225 E9.97505
G1 X11.428 Y51.934 E10.08901
G1 X12.307 Y50.252 E10.15213
G1 X14.523 Y47.912 E10.25932
G1 X16.303 Y46.674 E10.33144
G1 X17.635 Y46.302 E10.37744
G1 X17.801 Y45.977 E10.38957
G1 X20.026 Y43.628 E10.49719
G1 X21.807 Y42.39 E10.56933
G0 F9000 X21.979 Y42.757
G1 F1800 X25.164 Y41.869 E10.6793
G1 X27.262 Y41.715 E10.74927
G1 X29.142 Y42.245 E10.81424
G1 X30.486 Y41.869 E10.86065
G1 X32.584 Y41.715 E10.93062
G1 X34.469 Y42.246 E10.99576
G1 X35.817 Y41.869 E11.04231
G1 X37.925 Y41.715 E11.11261
G1 X39.805 Y42.245 E11.17758
G1 X41.149 Y41.869 E11.224
G1 X43.247 Y41.715 E11.29396
G1 X45.132 Y42.246 E11.3591
G1 X46.48 Y41.869 E11.40565
G1 X48.579 Y41.715 E11.47565
G1 X50.464 Y42.246 E11.54079
G1 X51.812 Y41.869 E11.58734
G1 X53.92 Y41.715 E11.65764
G1 X55.8 Y42.245 E11.72261
G1 X57.144 Y41.869 E11.76903
G1 X59.242 Y41.715 E11.839
G1 X61.127 Y42.246 E11.90413
G1 X62.475 Y41.869 E11.95069
G1 X64.58 Y41.715 E12.02089
G1 X67.753 Y42.609 E12.13053
G1 X69.638 Y43.569 E12.20089
G1 X71.75 Y45.806 E12.30321
G1 X74.393 Y46.547 E12.39451
G1 X76.245 Y47.499 E12.46377
G1 X78.523 Y49.893 E12.57368
G1 X79.502 Y51.456 E12.63502
G1 X80.349 Y54.374 E12.73608
G1 X80.523 Y56.48 E12.80636
G1 X79.976 Y58.419 E12.87337
G1 X80.349 Y59.697 E12.91765
G1 X80.523 Y61.814 E12.9883
G1 X79.976 Y63.752 E13.05528
G1 X80.349 Y65.032 E13.09962
G1 X80.523 Y67.145 E13.17014
G1 X79.976 Y69.081 E13.23705
G1 X80.349 Y70.36 E13.28136
G1 X80.523 Y72.476 E13.35198
G1 X79.609 Y75.699 E13.4634
G1 X80.349 Y78.245 E13.55159
G1 X80.523 Y80.355 E13.622
G1 X79.709 Y83.247 E13.72193
G1 X80.729 Y84.568 E13.77744
G1 X81.705 Y86.854 E13.86011
G1 X81.946 Y89.254 E13.94034
G1 X81.872 Y131.821 E15.35613
G1 X81.663 Y133.255 E15.40432
G1 X80.762 Y135.359 E15.48045
G1 X79.293 Y137.276 E15.56078
G1 X77.437 Y138.698 E15.63854
G1 X75.192 Y139.658 E15.71975
G1 X72.798 Y139.899 E15.79978
G1 X23.479 Y139.826 E17.44014
G1 X22.043 Y139.617 E17.4884
G1 X19.933 Y138.713 E17.56475
G1 X18.024 Y137.25 E17.64475
G1 X16.595 Y135.385 E17.72289
G1 X15.638 Y133.147 E17.80385
G1 X15.396 Y130.751 E17.88395
G1 X15.439 Y90.429 E19.22506
G1 X15.261 Y90.314 E19.23211
G1 X13.037 Y88.091 E19.3367
G1 X11.953 Y86.407 E19.40331
G1 X11.105 Y83.533 E19.50297
G1 X10.95 Y81.307 E19.57719
G1 X11.773 Y78.468 E19.6755
G1 X11.033 Y75.941 E19.76308
G1 X10.878 Y73.733 E19.8367
G1 X11.8 Y70.553 E19.94682
G1 X12.518 Y69.18 E19.99835
G1 X11.89 Y68.202 E20.03701
G1 X11.033 Y65.278 E20.13836
G1 X10.878 Y63.069 E20.21201
G1 X11.771 Y59.994 E20.31851
G1 X11.033 Y57.47 E20.40597
G1 X10.878 Y55.267 E20.47942
G1 X11.8 Y52.087 E20.58955
G1 X12.637 Y50.485 E20.64966
G1 X14.786 Y48.216 E20.75361
G1 X16.475 Y47.041 E20.82204
G1 X17.911 Y46.64 E20.87163
G1 X18.131 Y46.21 E20.88769
G1 X20.289 Y43.932 E20.99206
G1 X21.979 Y42.757 E21.06052
G0 F9000 X22.151 Y43.124
G1 F1800 X25.231 Y42.265 E21.16687
G1 X27.222 Y42.119 E21.23327
G1 X29.142 Y42.66 E21.29962
G1 X30.554 Y42.265 E21.34838
G1 X32.544 Y42.119 E21.41475
G1 X34.469 Y42.661 E21.48126
G1 X35.885 Y42.265 E21.53017
G1 X37.885 Y42.119 E21.59686
G1 X39.805 Y42.66 E21.66321
G1 X41.217 Y42.265 E21.71198
G1 X43.207 Y42.119 E21.77834
G1 X45.132 Y42.661 E21.84486
G1 X46.548 Y42.265 E21.89376
G1 X48.539 Y42.119 E21.96016
G1 X50.464 Y42.661 E22.02667
G1 X51.88 Y42.265 E22.07558
G1 X53.88 Y42.119 E22.14228
G1 X55.8 Y42.66 E22.20862
G1 X57.212 Y42.265 E22.25739
G1 X59.202 Y42.119 E22.32375
G1 X61.127 Y42.661 E22.39027
G1 X62.543 Y42.265 E22.43917
G1 X64.539 Y42.119 E22.50574
G1 X67.608 Y42.984 E22.61179
G1 X69.393 Y43.893 E22.67841
G1 X71.534 Y46.161 E22.78215
G1 X74.244 Y46.921 E22.87576
G1 X76.002 Y47.824 E22.94149
G1 X78.207 Y50.142 E23.0479
G1 X79.133 Y51.62 E23.10591
G1 X79.953 Y54.445 E23.20375
G1 X80.118 Y56.442 E23.2704
G1 X79.56 Y58.421 E23.33878
G1 X79.953 Y59.768 E23.38545
G1 X80.118 Y61.775 E23.45243
G1 X79.56 Y63.753 E23.52079
G1 X79.953 Y65.103 E23.56755
G1 X80.118 Y67.106 E23.6344
G1 X79.56 Y69.083 E23.70272
G1 X79.953 Y70.431 E23.74943
G1 X80.118 Y72.437 E23.81637
G1 X79.245 Y75.534 E23.92339
G1 X79.185 Y75.672 E23.9284
G1 X79.953 Y78.316 E24.01997
G1 X80.118 Y80.317 E24.08675
G1 X79.269 Y83.333 E24.19096
G1 X80.382 Y84.774 E24.25152
G1 X81.313 Y86.955 E24.33039
G1 X81.546 Y89.253 E24.40722
G1 X81.476 Y131.763 E25.82111
G1 X81.275 Y133.145 E25.86756
G1 X80.412 Y135.159 E25.94043
G1 X79.008 Y136.991 E26.0172
G1 X77.236 Y138.349 E26.09146
G1 X75.091 Y139.266 E26.16904
G1 X72.799 Y139.499 E26.24567
G1 X23.537 Y139.43 E27.88413
G1 X22.152 Y139.228 E27.93068
G1 X20.134 Y138.364 E28.0037
G1 X18.309 Y136.965 E28.08018
G1 X16.944 Y135.184 E28.15481
G1 X16.03 Y133.046 E28.23215
G1 X15.796 Y130.751 E28.30888
G1 X15.839 Y90.19 E29.65794
G1 X15.544 Y90.031 E29.66909
G1 X13.349 Y87.837 E29.77231
G1 X12.321 Y86.24 E29.83548
G1 X11.501 Y83.46 E29.93188
G1 X11.354 Y81.349 E30.00226
G1 X12.19 Y78.467 E30.10207
G1 X11.429 Y75.87 E30.19208
G1 X11.282 Y73.775 E30.26193
G1 X12.172 Y70.706 E30.36821
G1 X12.98 Y69.159 E30.42626
G1 X12.258 Y68.034 E30.47072
G1 X11.429 Y65.206 E30.56874
G1 X11.282 Y63.111 E30.63859
G1 X12.147 Y60.13 E30.74183
G1 X12.195 Y60.018 E30.74588
G1 X11.429 Y57.399 E30.83664
G1 X11.282 Y55.309 E30.90632
G1 X12.173 Y52.235 E31.01277
G1 X12.965 Y50.72 E31.06963
G1 X15.049 Y48.52 E31.17042
G1 X16.647 Y47.408 E31.23517
G1 X18.187 Y46.978 E31.28835
G1 X18.461 Y46.443 E31.30835
G1 X20.552 Y44.236 E31.40947
G1 X22.151 Y43.124 E31.47425
G0 F9000 X22.323 Y43.491
G1 F1800 X25.298 Y42.661 E31.57697
G1 X27.181 Y42.523 E31.63977
G1 X29.141 Y43.076 E31.7075
G1 X30.622 Y42.661 E31.75866
G1 X32.504 Y42.523 E31.82142
G1 X34.469 Y43.076 E31.88932
G1 X35.953 Y42.661 E31.94057
G1 X37.844 Y42.523 E32.00363
G1 X39.804 Y43.076 E32.07137
G1 X41.285 Y42.661 E32.12252
G1 X43.167 Y42.523 E32.18529
G1 X45.132 Y43.076 E32.25318
G1 X46.616 Y42.661 E32.30443
G1 X48.499 Y42.523 E32.36723
G1 X50.464 Y43.076 E32.43513
G1 X51.948 Y42.661 E32.48638
G1 X53.839 Y42.523 E32.54944
G1 X55.799 Y43.076 E32.61717
G1 X57.28 Y42.661 E32.66833
G1 X59.162 Y42.523 E32.73109
G1 X61.127 Y43.076 E32.79899
G1 X62.611 Y42.661 E32.85024
G1 X64.499 Y42.523 E32.9132
G1 X67.462 Y43.358 E33.01559
G1 X69.148 Y44.217 E33.07853
G1 X71.215 Y46.402 E33.17857
G1 X71.293 Y46.509 E33.18297
G1 X74.095 Y47.295 E33.27976
G1 X75.759 Y48.149 E33.34197
G1 X77.891 Y50.391 E33.44487
G1 X78.765 Y51.785 E33.4996
G1 X79.557 Y54.515 E33.59414
G1 X79.713 Y56.404 E33.65718
G1 X79.144 Y58.423 E33.72695
G1 X79.557 Y59.839 E33.77601
G1 X79.713 Y61.736 E33.83932
G1 X79.144 Y63.755 E33.90908
G1 X79.557 Y65.174 E33.95824
G1 X79.713 Y67.067 E34.02141
G1 X79.144 Y69.085 E34.09115
G1 X79.557 Y70.502 E34.14024
G1 X79.713 Y72.399 E34.20355
G1 X78.86 Y75.426 E34.30815
G1 X78.746 Y75.66 E34.3168
G1 X78.8 Y75.779 E34.32115
G1 X79.557 Y78.387 E34.41147
G1 X79.713 Y80.279 E34.47462
G1 X78.829 Y83.419 E34.58311
G1 X80.035 Y84.98 E34.64872
G1 X80.921 Y87.056 E34.72379
G1 X81.146 Y89.252 E34.79722
G1 X81.08 Y131.705 E36.20921
G1 X80.886 Y133.036 E36.25395
G1 X80.063 Y134.958 E36.32349
G1 X78.725 Y136.704 E36.39665
G1 X77.032 Y138.001 E36.46758
G1 X74.99 Y138.874 E36.54145
G1 X72.8 Y139.099 E36.61467
G1 X23.595 Y139.034 E38.25124
G1 X22.262 Y138.84 E38.29604
G1 X20.334 Y138.014 E38.3658
G1 X18.596 Y136.682 E38.43863
G1 X17.292 Y134.98 E38.50995
G1 X16.422 Y132.945 E38.58356
G1 X16.196 Y130.751 E38.65692
G1 X16.239 Y89.951 E40.01393
G1 X15.786 Y89.707 E40.03104
G1 X13.661 Y87.583 E40.13097
G1 X12.689 Y86.073 E40.1907
G1 X11.897 Y83.387 E40.28384
G1 X11.758 Y81.391 E40.35039
G1 X12.607 Y78.465 E40.45172
G1 X11.825 Y75.798 E40.54416
G1 X11.686 Y73.817 E40.61021
G1 X12.545 Y70.854 E40.71282
G1 X13.271 Y69.465 E40.76495
G1 X13.49 Y69.212 E40.77608
G1 X12.625 Y67.865 E40.82932
G1 X11.825 Y65.135 E40.92394
G1 X11.686 Y63.153 E40.99002
G1 X12.531 Y60.241 E41.09087
G1 X12.621 Y60.051 E41.09786
G1 X11.825 Y57.328 E41.19222
G1 X11.686 Y55.351 E41.25814
G1 X12.545 Y52.388 E41.36075
G1 X13.295 Y50.953 E41.4146
G1 X15.31 Y48.826 E41.51205
G1 X16.821 Y47.774 E41.57329
G1 X18.463 Y47.316 E41.62999
G1 X18.791 Y46.676 E41.6539
G1 X20.815 Y44.54 E41.75178
G1 X22.323 Y43.491 E41.81287
G0 F9000 X22.497 Y43.857
G1 F1800 X25.365 Y43.057 E41.91191
G1 X27.14 Y42.927 E41.9711
G1 X29.14 Y43.491 E42.04022
G1 X30.69 Y43.057 E42.09375
G1 X32.464 Y42.927 E42.15291
G1 X34.469 Y43.491 E42.22219
G1 X36.021 Y43.057 E42.27579
G1 X37.803 Y42.927 E42.33522
G1 X39.803 Y43.491 E42.40433
G1 X41.353 Y43.057 E42.45787
G1 X43.127 Y42.927 E42.51703
G1 X45.132 Y43.491 E42.5863
G1 X46.684 Y43.057 E42.6399
G1 X48.459 Y42.927 E42.6991
G1 X50.464 Y43.491 E42.76837
G1 X52.016 Y43.057 E42.82197
G1 X53.798 Y42.927 E42.8814
G1 X55.798 Y43.491 E42.95051
G1 X57.348 Y43.057 E43.00405
G1 X59.122 Y42.927 E43.06321
G1 X61.127 Y43.491 E43.13249
G1 X62.679 Y43.057 E43.18609
G1 X64.459 Y42.927 E43.24545
G1 X67.316 Y43.732 E43.34417
G1 X68.904 Y44.541 E43.40345
G1 X70.924 Y46.677 E43.50123
G1 X71.064 Y46.885 E43.50957
G1 X71.219 Y46.901 E43.51475
G1 X73.946 Y47.669 E43.60898
G1 X75.516 Y48.474 E43.66766
G1 X77.573 Y50.638 E43.76696
G1 X78.397 Y51.952 E43.81855
G1 X79.161 Y54.585 E43.90974
G1 X79.308 Y56.366 E43.96917
G1 X78.728 Y58.425 E44.04032
G1 X79.161 Y59.91 E44.09177
G1 X79.308 Y61.698 E44.15144
G1 X78.728 Y63.756 E44.22256
G1 X79.161 Y65.245 E44.27413
G1 X79.308 Y67.029 E44.33367
G1 X78.728 Y69.087 E44.40478
G1 X79.161 Y70.573 E44.45626
G1 X79.308 Y72.361 E44.51593
G1 X78.475 Y75.318 E44.61811
G1 X78.292 Y75.663 E44.6311
G1 X78.416 Y75.89 E44.6397
G1 X79.161 Y78.457 E44.72861
G1 X79.308 Y80.241 E44.78814
G1 X78.474 Y83.204 E44.89052
G1 X78.322 Y83.49 E44.9013
G1 X78.493 Y83.638 E44.90882
G1 X79.687 Y85.184 E44.97379
G1 X80.529 Y87.157 E45.04514
G1 X80.746 Y89.251 E45.11516
G1 X80.684 Y131.647 E46.52525
G1 X80.498 Y132.926 E46.56824
G1 X79.713 Y134.758 E46.63453
G1 X78.44 Y136.419 E46.70414
G1 X76.831 Y137.652 E46.77156
G1 X74.889 Y138.482 E46.8418
G1 X72.8 Y138.699 E46.91165
G1 X23.653 Y138.638 E48.54629
G1 X22.371 Y138.451 E48.58938
G1 X20.535 Y137.665 E48.65581
G1 X18.881 Y136.397 E48.72513
G1 X17.641 Y134.779 E48.79293
G1 X16.814 Y132.844 E48.86292
G1 X16.596 Y130.751 E48.93291
G1 X16.639 Y89.713 E50.29784
G1 X16.028 Y89.383 E50.32093
G1 X13.973 Y87.329 E50.41757
G1 X13.057 Y85.906 E50.47386
G1 X12.293 Y83.314 E50.56374
G1 X12.162 Y81.433 E50.62645
G1 X12.965 Y78.664 E50.72234
G1 X13.067 Y78.451 E50.7302
G1 X12.959 Y78.244 E50.73796
G1 X12.221 Y75.726 E50.82523
G1 X12.09 Y73.859 E50.88748
G1 X12.917 Y71.007 E50.98625
G1 X13.626 Y69.65 E51.03717
G1 X14.021 Y69.235 E51.05623
G1 X13.886 Y69.087 E51.06289
G1 X12.993 Y67.697 E51.11784
G1 X12.221 Y65.063 E51.20913
G1 X12.09 Y63.195 E51.27142
G1 X12.915 Y60.352 E51.36988
G1 X13.081 Y60.033 E51.38184
G1 X12.976 Y59.839 E51.38917
G1 X12.221 Y57.257 E51.47865
G1 X12.09 Y55.393 E51.5408
G1 X12.917 Y52.541 E51.63956
G1 X13.625 Y51.186 E51.69041
G1 X15.571 Y49.132 E51.78452
G1 X16.994 Y48.141 E51.84219
G1 X18.739 Y47.654 E51.90245
G1 X19.122 Y46.908 E51.93034
G1 X21.076 Y44.846 E52.02483
G1 X22.497 Y43.857 E52.08241
G0 F9000 X22.67 Y44.224
G1 F1800 X25.433 Y43.453 E52.17782
G1 X27.099 Y43.331 E52.23338
G1 X29.139 Y43.906 E52.30387
G1 X30.758 Y43.453 E52.35979
G1 X32.424 Y43.331 E52.41535
G1 X34.469 Y43.906 E52.486
G1 X36.089 Y43.453 E52.54195
G1 X37.762 Y43.331 E52.59774
G1 X39.802 Y43.906 E52.66824
G1 X41.421 Y43.453 E52.72415
G1 X43.087 Y43.331 E52.77971
G1 X45.132 Y43.906 E52.85037
G1 X46.752 Y43.453 E52.90632
G1 X48.419 Y43.331 E52.96191
G1 X50.464 Y43.906 E53.03256
G1 X52.084 Y43.453 E53.08851
G1 X53.757 Y43.331 E53.1443
G1 X55.797 Y43.906 E53.2148
G1 X57.416 Y43.453 E53.27071
G1 X59.082 Y43.331 E53.32627
G1 X61.127 Y43.906 E53.39693
G1 X62.747 Y43.453 E53.45288
G1 X64.419 Y43.331 E53.50864
G1 X67.17 Y44.106 E53.6037
G1 X68.659 Y44.865 E53.65928
G1 X70.633 Y46.952 E53.75483
G1 X70.84 Y47.282 E53.76779
G1 X71.111 Y47.286 E53.7768
G1 X73.799 Y48.043 E53.86968
G1 X75.272 Y48.798 E53.92473
G1 X77.257 Y50.887 E54.02058
G1 X78.028 Y52.117 E54.06886
G1 X78.765 Y54.656 E54.1568
G1 X78.903 Y56.328 E54.2126
G1 X78.312 Y58.427 E54.28512
G1 X78.765 Y59.981 E54.33896
G1 X78.903 Y61.66 E54.39499
G1 X78.312 Y63.758 E54.46749
G1 X78.765 Y65.316 E54.52145
G1 X78.903 Y66.991 E54.57735
G1 X78.312 Y69.09 E54.64988
G1 X78.765 Y70.644 E54.70372
G1 X78.903 Y72.323 E54.75975
G1 X78.102 Y75.168 E54.85805
G1 X77.83 Y75.68 E54.87734
G1 X78.032 Y76.001 E54.88995
G1 X78.765 Y78.527 E54.97743
G1 X78.903 Y80.203 E55.03336
G1 X78.101 Y83.052 E55.13181
G1 X77.811 Y83.601 E55.15246
G1 X78.176 Y83.883 E55.1678
G1 X79.34 Y85.39 E55.23113
G1 X80.137 Y87.258 E55.29868
G1 X80.346 Y89.25 E55.3653
G1 X80.288 Y131.589 E56.7735
G1 X80.109 Y132.817 E56.81478
G1 X79.364 Y134.557 E56.87773
G1 X78.155 Y136.134 E56.94382
G1 X76.63 Y137.303 E57.00773
G1 X74.788 Y138.09 E57.07435
G1 X72.8 Y138.299 E57.14084
G1 X23.711 Y138.242 E58.77355
G1 X22.481 Y138.063 E58.81489
G1 X20.735 Y137.315 E58.87806
G1 X19.168 Y136.114 E58.94373
